{"compressionlevel":-1,"infinite":false,"orientation":"orthogonal","renderorder":"right-down","width":36,"height":24,"tilewidth":16,"tileheight":16,"nextlayerid":8,"nextobjectid":20,"version":"1.10","tiledversion":"1.10.2","type":"map","tilesets":[{"firstgid":1,"columns":16,"image":"../tilesets/office-tileset.png","imageheight":512,"imagewidth":256,"margin":0,"name":"office-tileset","spacing":0,"tilecount":512,"tileheight":16,"tilewidth":16},{"firstgid":513,"source":"A5 Office Floors & Walls.tsx"},{"firstgid":1025,"source":"interiors.tsx"}],"layers":[{"id":1,"name":"floor","type":"tilelayer","data":[0,0,0,0,0,0,0,0,0,0,0,0,0,0,0,0,0,0,0,0,0,0,0,0,0,0,0,0,0,0,0,0,0,0,0,0,0,783,784,783,784,783,784,783,784,783,784,783,784,783,784,783,784,783,784,783,784,783,784,783,784,783,784,783,784,783,784,783,784,783,784,0,0,799,800,799,800,799,800,799,800,799,800,799,800,799,800,799,800,799,800,799,800,799,800,799,800,799,800,799,800,799,800,799,800,799,800,0,0,783,784,783,784,783,784,783,784,783,784,783,784,783,784,783,784,783,784,783,784,783,784,783,784,783,784,783,784,783,784,783,784,783,784,0,0,799,800,799,800,799,800,799,800,799,800,799,800,799,800,799,800,799,800,799,800,799,800,799,800,799,800,799,800,799,800,799,800,799,800,0,0,783,784,783,784,783,784,783,784,783,784,783,784,783,784,783,784,783,784,783,784,783,784,783,784,783,784,783,784,783,784,783,784,783,784,0,0,799,800,799,800,799,800,799,800,799,800,799,800,799,800,799,800,799,800,799,800,799,800,799,800,799,800,799,800,799,800,799,800,799,800,0,0,783,784,783,784,783,784,783,784,783,784,783,784,783,784,783,784,783,784,783,784,783,784,783,784,783,784,783,784,783,784,783,784,783,784,0,0,799,800,799,800,799,800,799,800,799,800,799,800,799,800,799,800,799,800,799,800,799,800,799,800,799,800,799,800,799,800,799,800,799,800,0,0,783,784,783,784,783,784,783,784,783,784,783,784,783,784,783,784,783,784,783,784,783,784,783,784,783,784,783,784,783,784,783,784,783,784,0,0,799,800,799,800,799,800,799,800,799,800,799,800,799,800,799,800,799,800,799,800,799,800,799,800,799,800,799,800,799,800,799,800,799,800,0,0,783,784,783,784,783,784,783,784,783,784,783,784,783,784,783,784,783,784,783,784,783,784,783,784,783,784,783,784,783,784,783,784,783,784,0,0,799,800,799,800,799,800,799,800,799,800,799,800,799,800,799,800,799,800,799,800,799,800,799,800,799,800,799,800,799,800,799,800,799,800,0,0,783,784,783,784,783,784,783,784,783,784,783,784,783,784,783,784,783,784,783,784,783,784,783,784,783,784,783,784,783,784,783,784,783,784,0,0,799,800,799,800,799,800,799,800,799,800,799,800,799,800,799,800,799,800,799,800,799,800,799,800,799,800,799,800,799,800,799,800,799,800,0,0,783,784,783,784,783,784,783,784,783,784,783,784,783,784,783,784,783,784,783,784,783,784,783,784,783,784,783,784,783,784,783,784,783,784,0,0,799,800,799,800,799,800,799,800,799,800,799,800,799,800,799,800,799,800,799,800,799,800,799,800,799,800,799,800,799,800,799,800,799,800,0,0,783,784,783,784,783,784,783,784,783,784,783,784,783,784,783,784,783,784,783,784,783,784,783,784,783,784,783,784,783,784,783,784,783,784,0,0,799,800,799,800,799,800,799,800,799,800,799,800,799,800,799,800,799,800,799,800,799,800,799,800,799,800,799,800,799,800,799,800,799,800,0,0,783,784,783,784,783,784,783,784,783,784,783,784,783,784,783,784,783,784,783,784,783,784,783,784,783,784,783,784,783,784,783,784,783,784,0,0,799,800,799,800,799,800,799,800,799,800,799,800,799,800,799,800,799,800,799,800,799,800,799,800,799,800,799,800,799,800,799,800,799,800,0,0,783,784,783,784,783,784,783,784,783,784,783,784,783,784,783,784,783,784,783,784,783,784,783,784,783,784,783,784,783,784,783,784,783,784,0,0,799,800,799,800,799,800,799,800,799,800,799,800,799,800,799,800,799,800,799,800,799,800,799,800,799,800,799,800,799,800,799,800,799,800,0,0,0,0,0,0,0,0,0,0,0,0,0,0,0,0,0,0,0,0,0,0,0,0,0,0,0,0,0,0,0,0,0,0,0,0,0],"width":36,"height":24,"x":0,"y":0,"opacity":1,"visible":true},{"id":2,"name":"walls","type":"tilelayer","data":[514,522,522,522,522,522,522,522,522,522,522,522,522,522,522,522,522,522,522,522,522,522,522,522,522,522,522,522,522,522,522,522,522,522,522,517,530,554,554,554,554,554,554,554,554,554,554,554,554,554,554,554,554,554,554,554,554,554,554,554,554,554,554,554,554,554,554,554,554,554,554,533,530,570,570,570,570,570,570,570,570,570,570,570,570,570,570,570,570,570,570,570,570,570,570,570,570,570,570,570,570,570,570,570,570,570,570,533,530,0,0,0,0,0,0,0,0,0,0,0,0,0,0,0,0,611,611,0,0,0,0,0,0,0,611,611,0,0,0,0,0,0,0,533,530,0,0,0,0,0,0,0,0,0,0,0,0,0,0,0,0,643,643,0,0,0,0,0,0,0,643,643,0,0,0,0,0,0,0,533,530,0,0,0,0,0,0,0,0,0,0,0,0,0,0,0,0,643,643,0,0,0,0,0,0,0,643,643,0,0,0,0,0,0,0,533,530,0,0,0,0,0,0,0,0,0,0,0,0,0,0,0,0,0,0,0,0,0,0,0,0,0,0,0,0,0,0,0,0,0,0,533,530,0,0,0,0,0,0,0,0,0,0,0,0,0,0,0,0,0,0,0,0,0,0,0,0,0,0,0,0,0,0,0,0,0,0,533,530,0,0,0,0,0,0,0,0,0,0,0,0,0,0,0,0,643,643,0,0,0,0,0,0,0,643,643,0,0,0,0,0,0,0,533,530,0,0,0,0,0,0,0,0,0,0,0,0,0,0,0,0,643,643,0,0,0,0,0,0,0,643,643,0,0,0,0,0,0,0,533,530,522,522,522,522,522,522,522,0,0,522,522,522,522,522,522,522,522,522,522,522,0,0,522,522,522,522,522,522,522,0,0,522,522,522,533,530,554,554,554,554,554,554,554,0,0,554,554,554,554,554,554,554,554,554,554,554,0,0,554,554,554,554,554,554,554,0,0,554,554,554,533,530,570,570,570,570,570,570,570,0,0,570,570,570,570,570,570,570,570,570,570,570,0,0,570,570,570,570,570,570,570,0,0,570,570,570,533,530,0,0,0,0,0,0,0,0,0,0,0,0,0,0,0,0,0,0,0,0,0,0,0,0,0,0,0,0,0,0,0,0,0,0,533,530,0,0,0,0,0,0,0,0,0,0,0,0,0,0,0,0,0,0,0,0,0,0,0,0,0,0,0,0,0,0,0,0,0,0,533,530,0,0,0,0,0,0,0,0,0,0,0,0,0,0,0,0,0,0,0,0,0,0,0,0,0,0,0,0,0,0,0,0,0,0,533,530,0,0,0,0,0,0,0,0,0,0,0,0,0,0,0,0,0,0,0,0,0,0,0,0,0,0,0,0,0,0,0,0,0,0,533,530,0,0,0,0,0,0,0,0,0,0,0,0,0,0,0,0,0,0,0,0,0,0,0,0,0,0,0,0,0,0,0,0,0,0,533,530,0,0,0,0,0,0,0,0,0,0,0,0,0,0,0,0,0,0,0,0,0,0,0,0,0,0,0,0,0,0,0,0,0,0,533,530,0,0,0,0,0,0,0,0,0,0,0,0,0,0,0,0,0,0,0,0,0,0,0,0,0,0,0,0,0,0,0,0,0,0,533,530,0,0,0,0,0,0,0,0,0,0,0,0,0,0,0,0,0,0,0,0,0,0,0,0,0,0,0,0,0,0,0,0,0,0,533,530,0,0,0,0,0,0,0,0,0,0,0,0,0,0,0,0,0,0,0,0,0,0,0,0,0,0,0,0,0,0,0,0,0,0,533,530,0,0,0,0,0,0,0,0,0,0,0,0,0,0,0,0,0,0,0,0,0,0,0,0,0,0,0,0,0,0,0,0,0,0,533,578,579,579,579,579,579,579,579,579,579,579,579,579,579,579,579,579,0,0,579,579,579,579,579,579,579,579,579,579,579,579,579,579,579,579,581],"width":36,"height":24,"x":0,"y":0,"opacity":1,"visible":true},{"id":3,"name":"furniture-below","type":"tilelayer","data":[0,0,0,0,0,0,0,0,0,0,0,0,0,0,0,0,0,0,0,0,0,0,0,0,0,0,0,0,0,0,0,0,0,0,0,0,0,0,0,0,0,0,0,0,0,0,0,0,0,0,0,0,0,0,0,0,0,0,0,0,0,0,0,0,0,0,0,0,0,0,0,0,0,0,0,0,0,0,0,0,0,0,0,0,0,0,0,0,0,0,0,0,0,0,0,0,0,0,0,0,0,0,0,0,0,0,0,0,0,0,0,0,0,0,0,0,0,0,0,0,0,0,0,0,0,0,0,0,0,0,0,0,0,0,0,0,0,0,0,0,0,0,0,0,0,0,470,0,0,0,257,257,257,257,0,0,0,0,0,0,0,0,0,0,0,0,0,0,0,0,0,0,0,0,0,0,0,0,0,0,0,0,0,0,0,1610612898,1610612914,2684354789,2684354789,1610612914,1610612930,260,0,0,0,0,0,0,0,0,0,0,260,0,0,0,0,0,0,0,2,3,4,0,0,0,0,0,0,0,0,1610612897,1610612913,1610612965,1610612965,1610612913,1610612929,276,0,0,0,0,0,0,0,0,0,28,29,30,0,0,0,0,0,0,0,289,0,0,0,0,0,0,0,0,0,0,274,274,274,274,0,0,0,0,0,0,0,0,0,0,0,0,261,0,0,0,0,0,0,0,0,305,0,0,0,0,0,0,0,0,0,0,0,0,0,0,0,0,0,125,126,127,0,0,0,0,0,0,0,0,0,0,0,0,109,110,111,0,0,0,0,0,0,0,0,0,0,0,0,0,0,0,0,0,0,0,0,0,0,0,0,0,0,0,0,0,0,0,0,0,0,0,0,0,84,85,86,0,0,0,0,0,0,0,0,0,0,0,0,0,0,0,0,0,0,0,0,0,0,0,0,0,0,0,0,0,0,0,0,0,0,0,0,0,0,0,0,0,0,0,0,0,0,0,0,0,0,0,0,0,0,0,0,0,0,0,0,0,0,0,0,0,0,0,0,0,0,0,0,0,0,0,0,0,0,0,0,0,0,0,0,0,0,0,0,0,0,0,0,0,0,0,0,0,0,0,0,0,0,0,0,0,0,0,0,0,0,0,0,0,0,0,0,0,0,0,0,0,0,0,0,0,0,0,0,0,0,0,0,0,0,0,0,0,0,0,0,0,1029,1026,1027,0,0,0,0,2,3,4,0,2,3,4,0,0,0,0,0,2,3,4,0,2,3,4,0,0,0,0,0,0,0,0,0,0,1041,1042,1043,0,0,470,0,0,289,0,0,0,289,0,0,0,0,0,0,0,289,0,0,0,289,0,0,0,0,0,0,0,0,0,0,0,1044,0,1061,0,0,0,0,0,305,0,0,0,305,0,0,0,0,0,0,0,305,0,0,0,305,0,0,0,0,470,0,0,0,305,305,0,1073,1074,1075,0,0,0,0,0,0,0,0,0,0,0,0,0,0,0,0,0,0,0,0,0,0,0,0,0,0,0,0,0,0,0,0,39,0,285,286,0,0,0,0,0,0,2,3,4,0,2,3,4,0,0,0,0,0,2,3,4,0,2,3,4,0,0,0,297,0,305,305,0,0,0,297,0,0,0,0,0,0,0,289,0,0,0,289,0,0,0,0,0,0,0,289,0,0,0,289,0,0,0,0,0,0,0,0,269,191,192,0,0,0,0,0,0,0,0,305,0,0,0,305,0,0,0,0,0,0,0,305,0,0,0,305,0,0,0,0,0,38,40,39,285,207,208,2248,0,0,0,0,0,0,0,0,0,0,0,0,0,0,0,0,297,0,0,0,0,0,0,0,0,0,0,0,0,54,56,55,301,223,224,2264,0,0,0,0,0,0,0,0,0,0,0,0,0,0,470,0,0,0,0,0,0,0,0,0,0,0,0,0,0,0,0,0,0,0,472,2280,0,0,0,0,0,0,0,0,0,0,0,0,0,0,0,0,0,0,0,0,0,0,0,0,0,0,0,0,0,0,0,0,0,0,0,0,0],"width":36,"height":24,"x":0,"y":0,"opacity":1,"visible":true},{"id":4,"name":"furniture-above","type":"tilelayer","data":[0,0,0,0,0,0,0,0,0,0,0,0,0,0,0,0,0,0,0,0,0,0,0,0,0,0,0,0,0,0,0,0,0,0,0,0,0,0,0,0,0,0,0,0,0,0,0,0,0,0,0,0,0,0,0,0,0,0,0,0,0,0,0,0,0,0,0,0,0,0,0,0,0,0,0,0,0,0,0,0,0,0,0,0,0,0,0,0,0,0,0,0,0,0,0,0,0,0,0,0,0,0,0,0,0,0,0,0,0,0,0,407,0,0,0,0,0,406,0,0,0,0,0,0,0,0,0,0,0,0,374,0,0,0,0,0,0,0,0,0,0,408,0,0,0,0,0,0,0,0,0,0,0,0,0,0,0,0,0,0,0,0,0,0,0,0,0,0,0,0,0,0,0,0,0,365,366,0,0,0,0,0,0,0,0,451,0,0,0,0,395,0,0,0,0,0,0,0,0,0,0,0,0,0,0,0,0,0,0,0,0,381,382,0,0,0,0,0,0,0,0,467,258,258,258,258,411,0,0,0,0,0,0,0,0,0,0,0,0,0,0,0,0,0,0,0,18,19,20,0,0,0,0,0,0,0,0,0,0,0,0,0,0,0,0,0,0,0,0,0,0,0,0,0,0,0,0,0,0,0,0,0,0,0,0,0,0,0,0,0,0,0,0,0,0,0,0,0,0,0,0,0,0,0,0,0,0,0,0,0,0,0,0,0,0,0,0,0,0,0,0,0,0,0,0,0,0,0,0,0,0,0,0,0,0,0,0,0,0,0,0,0,0,0,0,0,0,0,0,0,0,0,0,0,0,0,0,0,0,0,0,0,0,0,0,0,0,0,0,0,0,0,0,0,0,0,0,0,0,0,0,0,0,0,0,0,0,0,0,0,0,0,0,0,0,0,0,0,0,0,0,0,0,0,0,0,0,0,0,0,0,0,0,0,0,0,0,0,0,0,0,0,0,0,0,0,0,0,0,0,0,0,0,0,0,0,0,0,0,0,0,0,0,0,0,0,0,0,0,0,0,0,0,0,0,0,0,0,0,0,0,0,0,0,0,0,0,0,0,0,0,0,365,366,0,0,365,366,0,0,0,0,0,0,365,366,0,0,365,366,0,0,0,0,0,0,0,0,415,0,0,0,0,0,0,0,0,0,381,382,0,0,381,382,0,0,0,0,0,0,381,382,0,0,381,382,0,0,0,0,0,0,0,0,0,0,0,0,0,0,0,0,0,18,19,20,0,18,19,20,0,0,0,0,0,18,19,20,0,18,19,20,0,0,0,0,0,0,0,0,0,0,0,1610613812,0,0,0,0,0,0,0,0,0,0,0,0,0,0,0,0,0,0,0,0,0,0,0,0,0,0,0,0,0,0,0,0,0,0,0,0,0,0,0,0,0,0,0,0,365,366,0,0,365,366,0,0,0,0,0,0,365,366,0,0,365,366,0,0,0,0,0,1650,1650,0,0,0,281,0,0,0,0,0,0,0,381,382,0,0,381,382,0,0,0,0,0,0,381,382,0,0,381,382,0,0,0,0,0,0,0,0,0,0,0,0,0,0,0,0,0,18,19,20,0,18,19,20,0,0,0,0,0,18,19,20,0,18,19,20,0,0,0,0,313,0,0,0,0,0,0,0,0,0,0,0,0,0,0,0,0,0,0,0,0,0,0,0,0,0,0,0,0,0,0,0,0,0,0,0,329,330,0,0,0,0,0,0,0,0,0,0,0,0,0,0,0,0,0,0,0,0,0,0,0,0,0,0,0,0,0,0,0,0,0,0,0,0,0,0,0,0,0,0,0,0,0,0,0,0,0,0,0,0,0,0,0,0,0,0,0,0,0,0,0,0,0,0,0,0,0,0,0,0,0,0,0,0,0,0,0,0,0,0,0,0,0,0,0,0,0,0,0,0,0,0,0,0,0,0,0,0,0,0,0,0,0,0,0,0,0,0,0,0,0,0],"width":36,"height":24,"x":0,"y":0,"opacity":1,"visible":true},{"id":5,"name":"collision","type":"tilelayer","data":[1,1,1,1,1,1,1,1,1,1,1,1,1,1,1,1,1,1,1,1,1,1,1,1,1,1,1,1,1,1,1,1,1,1,1,1,1,1,1,1,1,1,1,1,1,1,1,1,1,1,1,1,1,1,1,1,1,1,1,1,1,1,1,1,1,1,1,1,1,1,1,1,1,1,1,1,1,1,1,1,1,1,1,1,1,1,1,1,1,1,1,1,1,1,1,1,1,1,1,1,1,1,1,1,1,1,1,1,1,0,0,0,0,0,0,0,0,0,0,0,0,0,0,0,0,1,1,0,0,0,0,0,0,0,1,1,0,0,0,0,0,0,0,1,1,0,0,0,0,0,1,1,1,1,0,0,0,0,0,0,0,1,1,0,0,0,0,0,0,0,1,1,0,0,0,1,1,0,0,1,1,0,0,0,0,1,1,1,1,1,1,1,0,0,0,0,0,1,1,0,0,0,0,0,0,0,1,1,0,0,1,1,1,0,0,1,1,0,0,0,0,1,1,1,1,1,1,1,0,0,0,0,0,0,0,0,0,1,1,1,0,0,0,0,0,0,1,0,1,0,0,1,1,0,0,0,0,0,1,1,1,1,0,0,0,0,0,0,0,0,0,0,0,0,0,0,0,0,0,0,0,0,0,0,0,0,0,1,1,0,0,0,0,0,0,0,0,0,0,0,0,1,1,1,0,1,1,0,0,0,0,0,0,0,1,1,1,1,1,0,0,0,0,1,1,0,0,0,0,0,0,0,0,0,0,0,0,0,0,0,0,1,1,0,0,0,0,0,0,0,1,1,0,0,0,0,1,1,1,1,1,1,1,1,1,1,1,1,0,0,1,1,1,1,1,1,1,1,1,1,1,0,0,1,1,1,1,1,1,1,0,0,1,1,1,1,1,1,1,1,1,1,1,1,0,0,1,1,1,1,1,1,1,1,1,1,1,0,0,1,1,1,1,1,1,1,0,0,1,1,1,1,1,1,1,1,1,1,1,1,0,0,1,1,1,1,1,1,1,1,1,1,1,0,0,1,1,1,1,1,1,1,0,0,1,1,1,1,1,0,0,0,1,1,0,0,1,1,0,0,0,0,0,0,1,1,0,0,1,1,0,0,0,0,0,0,0,0,0,0,0,0,0,1,1,0,0,1,1,1,0,1,1,1,0,0,0,0,0,1,1,1,0,1,1,1,0,0,0,0,0,0,0,0,0,0,1,1,1,1,1,0,0,1,0,1,0,1,0,1,0,0,0,0,0,1,0,1,0,1,0,1,0,0,0,0,0,0,0,0,0,0,1,1,1,1,1,0,0,0,0,0,0,0,0,0,0,0,0,0,0,0,0,0,0,0,0,0,0,0,0,0,0,0,0,0,0,0,1,1,1,1,1,0,0,0,0,0,1,1,0,0,1,1,0,0,0,0,0,0,1,1,0,0,1,1,0,0,0,0,0,1,1,1,0,1,1,1,1,0,0,0,0,1,1,1,0,1,1,1,0,0,0,0,0,1,1,1,0,1,1,1,0,0,0,0,0,0,0,0,0,0,1,1,1,0,0,0,0,1,0,1,0,1,0,1,0,0,0,0,0,1,0,1,0,1,0,1,0,0,0,0,1,0,0,1,1,1,0,1,1,0,0,0,0,0,0,0,0,0,0,0,0,0,0,0,0,0,0,0,0,0,0,0,0,0,0,0,1,1,1,1,1,1,1,1,1,0,0,0,0,0,0,0,0,0,0,0,0,0,0,0,0,0,0,0,0,0,0,0,0,0,0,0,1,1,1,1,1,1,1,1,1,0,0,0,0,0,0,0,0,0,0,0,0,0,0,0,0,0,0,0,0,0,0,0,0,0,0,0,0,0,0,0,0,1,1,1,1,1,1,1,1,1,1,1,1,1,1,1,1,1,1,1,1,0,0,1,1,1,1,1,1,1,1,1,1,1,1,1,1,1,1,1],"width":36,"height":24,"x":0,"y":0,"opacity":1,"visible":true},{"id":6,"name":"spawn-points","type":"objectgroup","draworder":"topdown","objects":[{"id":1,"name":"desk-ceo","type":"","x":496,"y":96,"width":0,"height":0,"rotation":0,"visible":true,"point":true},{"id":2,"name":"pc-1","type":"","x":64,"y":240,"width":0,"height":0,"rotation":0,"visible":true,"point":true},{"id":3,"name":"pc-2","type":"","x":128,"y":240,"width":0,"height":0,"rotation":0,"visible":true,"point":true},{"id":4,"name":"pc-3","type":"","x":256,"y":240,"width":0,"height":0,"rotation":0,"visible":true,"point":true},{"id":5,"name":"pc-4","type":"","x":320,"y":240,"width":0,"height":0,"rotation":0,"visible":true,"point":true},{"id":6,"name":"pc-5","type":"","x":96,"y":304,"width":0,"height":0,"rotation":0,"visible":true,"point":true},{"id":7,"name":"pc-6","type":"","x":160,"y":304,"width":0,"height":0,"rotation":0,"visible":true,"point":true},{"id":8,"name":"pc-7","type":"","x":288,"y":304,"width":0,"height":0,"rotation":0,"visible":true,"point":true},{"id":9,"name":"pc-8","type":"","x":352,"y":304,"width":0,"height":0,"rotation":0,"visible":true,"point":true},{"id":10,"name":"cafe-seat-1","type":"","x":464,"y":256,"width":0,"height":0,"rotation":0,"visible":true,"point":true},{"id":11,"name":"cafe-seat-2","type":"","x":464,"y":288,"width":0,"height":0,"rotation":0,"visible":true,"point":true},{"id":12,"name":"cafe-seat-3","type":"","x":480,"y":256,"width":0,"height":0,"rotation":0,"visible":true,"point":true},{"id":13,"name":"cafe-seat-4","type":"","x":480,"y":288,"width":0,"height":0,"rotation":0,"visible":true,"point":true},{"id":14,"name":"cafe-stand-coffee","type":"","x":448,"y":352,"width":0,"height":0,"rotation":0,"visible":true,"point":true},{"id":15,"name":"cafe-stand-vending","type":"","x":496,"y":240,"width":0,"height":0,"rotation":0,"visible":true,"point":true},{"id":16,"name":"entrance","type":"","x":272,"y":336,"width":0,"height":0,"rotation":0,"visible":true,"point":true}],"opacity":1,"visible":true,"x":0,"y":0},{"id":7,"name":"zones","type":"objectgroup","draworder":"topdown","objects":[{"id":17,"name":"boardroom","type":"","x":16,"y":48,"width":256,"height":112,"rotation":0,"visible":true},{"id":18,"name":"cafeteria","type":"","x":432,"y":208,"width":128,"height":160,"rotation":0,"visible":true},{"id":19,"name":"holding","type":"","x":304,"y":48,"width":112,"height":112,"rotation":0,"visible":true}],"opacity":1,"visible":true,"x":0,"y":0}]}