{"orientation":"isometric","renderorder":"right-down","compressionlevel":-1,"infinite":false,"type":"map","version":"1.10","tiledversion":"1.10.2","nextlayerid":20,"nextobjectid":20,"width":12,"height":12,"tilewidth":32,"tileheight":16,"properties":[{"name":"spawnPointSpace","type":"string","value":"GENERATED FILE (tools/build-iso-map.cjs) — do not edit in Tiled. spawn-point objects use this repo's parser convention (x = tileX * tilewidth, y = tileY * tileheight), NOT Tiled's isometric object space (both axes scaled by tileheight). Opening and re-saving this map in Tiled will move every seat."}],"layers":[{"id":1,"name":"floor","type":"tilelayer","data":[1,2,1,2,1,2,1,2,1,2,1,2,3,4,3,4,3,4,3,4,3,4,3,4,1,2,1,2,1,2,1,2,1,2,1,2,3,4,3,4,3,4,3,4,3,4,3,4,1,2,1,2,1,2,1,2,1,2,1,2,3,4,3,4,3,4,3,4,3,4,3,4,1,2,1,2,1,2,1,2,1,2,1,2,3,4,3,4,3,4,3,4,3,4,3,4,1,2,1,2,1,2,1,2,1,2,1,2,3,4,3,4,3,4,3,4,3,4,3,4,1,2,1,2,1,2,1,2,1,2,1,2,3,4,3,4,3,4,3,4,3,4,3,4],"width":12,"height":12,"x":0,"y":0,"opacity":1,"visible":true},{"id":2,"name":"walls","type":"tilelayer","data":[5,5,5,5,5,5,5,5,5,5,5,5,5,0,0,0,0,0,0,0,0,0,0,0,5,0,0,0,0,0,0,0,0,0,0,0,5,0,0,0,0,0,0,0,0,0,0,0,5,0,0,0,0,0,0,0,0,0,0,0,5,0,0,0,0,0,0,0,0,0,0,0,5,0,0,0,0,0,0,0,0,0,0,0,5,0,0,0,0,0,0,0,0,0,0,0,5,0,0,0,0,0,0,0,0,0,0,0,5,0,0,0,0,0,0,0,0,0,0,0,5,0,0,0,0,0,0,0,0,0,0,0,5,0,0,0,0,0,0,0,0,0,0,0],"width":12,"height":12,"x":0,"y":0,"opacity":1,"visible":true},{"id":3,"name":"furniture-below","type":"tilelayer","data":[0,0,0,0,0,0,0,0,0,0,0,0,0,0,0,0,0,0,0,0,0,0,0,0,0,0,8,0,0,8,0,0,8,0,0,0,0,8,0,0,8,0,0,8,0,0,0,0,0,0,0,0,0,0,0,0,0,0,0,0,0,0,0,0,0,0,0,0,0,0,0,0,0,0,8,0,0,8,0,0,8,0,0,0,0,8,0,0,8,0,0,8,0,0,0,0,0,0,0,0,0,0,0,0,0,0,0,0,0,0,8,8,8,0,0,8,8,8,0,0,0,0,0,0,0,0,0,0,0,0,0,0,0,0,0,0,0,0,0,0,0,0,0,0],"width":12,"height":12,"x":0,"y":0,"opacity":1,"visible":true},{"id":4,"name":"furniture-above","type":"tilelayer","data":[0,0,0,0,0,0,0,0,0,0,0,0,0,0,0,0,0,0,0,0,0,0,0,0,0,0,0,0,0,0,0,0,0,0,0,0,0,0,0,0,0,0,0,0,0,0,0,0,0,0,0,0,0,0,0,0,0,0,0,0,0,0,0,0,0,0,0,0,0,0,0,0,0,0,0,0,0,0,0,0,0,0,0,0,0,0,0,0,0,0,0,0,0,0,0,0,0,0,0,0,0,0,0,0,0,0,0,0,0,0,0,0,0,0,0,0,0,0,0,0,0,0,0,0,0,0,0,0,0,0,0,0,0,0,0,0,0,0,0,0,0,0,0,0],"width":12,"height":12,"x":0,"y":0,"opacity":1,"visible":true},{"id":5,"name":"collision","type":"tilelayer","data":[1,1,1,1,1,1,1,1,1,1,1,1,1,0,0,0,0,0,0,0,0,0,0,0,1,0,1,0,0,1,0,0,1,0,0,0,1,1,0,0,1,0,0,1,0,0,0,0,1,0,0,0,0,0,0,0,0,0,0,0,1,0,0,0,0,0,0,0,0,0,0,0,1,0,1,0,0,1,0,0,1,0,0,0,1,1,0,0,1,0,0,1,0,0,0,0,1,0,0,0,0,0,0,0,0,0,0,0,1,0,1,1,1,0,0,1,1,1,0,0,1,0,0,0,0,0,0,0,0,0,0,0,1,0,0,0,0,0,0,0,0,0,0,0],"width":12,"height":12,"x":0,"y":0,"opacity":1,"visible":false},{"id":6,"name":"spawn-points","type":"objectgroup","draworder":"topdown","opacity":1,"visible":true,"x":0,"y":0,"objects":[{"id":100,"name":"desk-ceo","type":"","point":true,"x":64,"y":48,"width":0,"height":0,"rotation":0,"visible":true},{"id":101,"name":"pc-1","type":"","point":true,"x":160,"y":48,"width":0,"height":0,"rotation":0,"visible":true},{"id":102,"name":"pc-2","type":"","point":true,"x":256,"y":48,"width":0,"height":0,"rotation":0,"visible":true},{"id":103,"name":"pc-3","type":"","point":true,"x":64,"y":112,"width":0,"height":0,"rotation":0,"visible":true},{"id":104,"name":"pc-4","type":"","point":true,"x":160,"y":112,"width":0,"height":0,"rotation":0,"visible":true},{"id":105,"name":"pc-5","type":"","point":true,"x":256,"y":112,"width":0,"height":0,"rotation":0,"visible":true},{"id":199,"name":"entrance","type":"","point":true,"x":192,"y":176,"width":0,"height":0,"rotation":0,"visible":true}]}],"tilesets":[{"firstgid":1,"name":"iso","image":"iso","imagewidth":128,"imageheight":64,"tilewidth":32,"tileheight":32,"columns":4,"tilecount":8,"margin":0,"spacing":0}]}