{"compressionlevel":-1,"infinite":false,"orientation":"orthogonal","renderorder":"right-down","type":"map","version":"1.10","tiledversion":"1.10.2","width":48,"height":36,"tilewidth":16,"tileheight":16,"nextlayerid":8,"nextobjectid":33,"layers":[{"id":1,"name":"floor","type":"tilelayer","data":[0,0,0,0,0,0,0,0,0,0,0,0,0,0,0,0,0,0,0,0,0,0,0,0,0,0,0,0,0,0,0,0,0,0,0,0,0,0,0,0,0,0,0,0,0,0,0,0,0,0,0,0,0,0,0,0,0,0,0,0,0,0,0,0,0,0,0,0,0,0,0,0,0,0,0,0,0,0,0,0,0,0,0,0,0,0,0,0,0,0,0,0,0,0,0,0,0,0,0,0,0,0,0,0,0,0,0,0,0,0,0,0,0,0,0,0,0,0,0,0,0,0,0,0,0,0,0,0,0,0,0,0,0,0,0,0,0,0,0,0,0,0,0,0,0,516,515,516,515,516,515,516,515,516,515,516,515,516,515,516,515,516,515,516,515,516,515,516,515,516,515,516,515,516,515,516,515,516,515,516,515,516,515,516,515,516,515,516,515,516,515,0,0,514,513,514,513,514,513,514,513,514,513,514,513,514,513,514,513,514,513,514,513,514,513,514,513,514,513,514,513,514,513,514,513,514,513,514,513,514,513,514,513,514,513,514,513,514,513,0,0,516,519,520,519,520,519,520,519,520,519,520,519,520,519,520,519,520,519,520,519,520,519,520,519,520,519,516,515,516,515,516,515,520,519,520,519,520,519,520,519,520,519,520,515,516,515,0,0,514,517,518,517,518,517,518,517,518,517,518,517,518,517,518,517,518,517,518,517,518,517,518,517,518,517,514,513,514,513,514,513,518,517,518,517,518,517,518,517,518,517,518,513,514,513,0,0,516,519,520,519,520,519,520,519,520,519,520,519,520,519,520,519,520,519,520,519,520,519,520,519,520,519,516,515,516,515,516,515,520,519,520,519,520,519,520,519,520,519,520,515,516,515,0,0,514,517,518,517,518,517,518,517,518,517,518,517,518,517,518,517,518,517,518,517,518,517,518,517,518,517,514,513,514,513,514,513,518,517,518,517,518,517,518,517,518,517,518,513,514,513,0,0,516,519,520,519,520,519,520,519,520,519,520,519,520,519,520,519,520,519,520,519,520,519,520,519,520,519,516,515,516,515,516,515,520,519,520,519,520,519,520,519,520,519,520,515,516,515,0,0,514,517,518,517,518,517,518,517,518,517,518,517,518,517,518,517,518,517,518,517,518,517,518,517,518,517,514,513,514,513,514,513,518,517,518,517,518,517,518,517,518,517,518,513,514,513,0,0,516,519,520,519,520,519,520,519,520,519,520,519,520,519,520,519,520,519,520,519,520,519,520,519,520,519,516,515,516,515,516,515,520,519,520,519,520,519,520,519,520,519,520,515,516,515,0,0,514,513,514,513,514,513,514,513,514,513,514,513,514,513,514,513,514,513,514,513,514,513,514,513,514,513,514,513,514,513,514,513,514,513,514,513,514,513,514,513,514,513,514,513,514,513,0,0,516,515,516,515,516,515,516,515,516,515,516,515,516,515,516,515,516,515,516,515,516,515,516,515,516,515,516,515,516,515,516,515,516,515,516,515,516,515,516,515,516,515,516,515,516,515,0,0,514,513,514,513,514,513,514,513,514,513,514,513,514,513,514,513,514,513,514,513,514,513,514,513,514,513,514,513,514,513,514,513,514,513,514,513,514,513,514,513,514,513,514,513,514,513,0,0,516,515,516,515,516,515,516,515,516,515,516,515,516,515,516,515,516,515,516,515,516,515,516,515,516,515,516,515,516,515,516,515,516,515,516,515,516,515,516,515,516,515,516,515,516,515,0,0,514,517,518,517,518,517,518,517,518,517,518,513,514,517,518,517,518,517,518,517,518,517,518,517,518,517,514,513,514,513,514,513,514,513,514,513,514,513,514,513,514,513,514,513,514,513,0,0,516,519,520,519,520,519,520,519,520,519,520,515,516,519,520,519,520,519,520,519,520,519,520,519,520,519,516,515,516,515,516,515,516,515,516,515,516,515,516,515,516,515,516,515,516,515,0,0,514,517,518,517,518,517,518,517,518,517,518,513,514,517,518,517,518,517,518,517,518,517,518,517,518,517,514,513,514,513,514,513,514,513,514,513,514,513,514,513,514,513,514,513,514,513,0,0,516,519,520,519,520,519,520,519,520,519,520,515,516,519,520,519,520,519,520,519,520,519,520,519,520,519,516,515,516,515,516,515,516,515,516,515,516,515,516,515,516,515,516,515,516,515,0,0,514,517,518,517,518,517,518,517,518,517,518,513,514,513,514,513,514,513,514,513,514,513,514,513,514,513,514,513,514,513,514,513,514,513,514,513,514,513,514,513,514,513,514,513,514,513,0,0,516,519,520,519,520,519,520,519,520,519,520,515,516,515,516,515,516,515,516,515,516,515,516,515,516,515,516,515,516,515,516,515,516,515,516,515,516,515,516,515,516,515,516,515,516,515,0,0,514,517,518,517,518,517,518,517,518,517,518,513,514,513,514,513,514,513,514,513,514,513,514,513,514,513,514,513,514,513,514,513,514,513,514,513,514,513,514,513,514,513,514,513,514,513,0,0,516,519,520,519,520,519,520,519,520,519,520,515,516,515,516,515,516,515,516,515,516,515,516,515,516,515,516,515,516,515,516,515,516,515,516,515,516,515,516,515,516,515,516,515,516,515,0,0,514,513,514,513,514,513,514,513,514,513,514,513,514,513,514,513,514,513,514,513,514,513,514,513,514,513,514,513,514,513,514,513,514,513,514,513,514,513,514,513,514,513,514,513,514,513,0,0,516,515,516,515,516,515,516,515,516,515,516,515,516,515,516,515,516,515,516,515,516,515,516,515,516,515,516,515,516,523,524,523,524,523,524,523,524,523,524,523,524,523,524,523,524,523,0,0,514,513,514,513,514,513,514,513,514,513,514,513,514,513,514,513,514,513,514,513,514,513,514,513,514,513,514,513,514,521,522,521,522,521,522,521,522,521,522,521,522,521,522,521,522,521,0,0,516,515,516,515,516,515,516,515,516,515,516,515,516,515,516,515,516,515,516,515,516,515,516,515,516,515,516,515,516,523,524,523,524,523,524,523,524,523,524,523,524,523,524,523,524,523,0,0,514,513,514,513,514,513,514,513,514,513,514,513,514,513,514,513,514,513,514,513,514,513,514,513,514,513,514,513,514,521,522,521,522,521,522,521,522,521,522,521,522,521,522,521,522,521,0,0,516,515,516,515,516,515,516,515,516,515,516,515,516,515,516,515,516,515,516,515,516,515,516,515,516,515,516,515,516,523,524,523,524,523,524,523,524,523,524,523,524,523,524,523,524,523,0,0,514,513,514,513,514,513,514,513,514,513,514,513,514,513,514,513,514,513,514,513,514,513,514,513,514,513,514,513,514,521,522,521,522,521,522,521,522,521,522,521,522,521,522,521,522,521,0,0,516,515,516,515,516,515,516,515,516,515,516,515,516,515,516,515,516,515,516,515,516,515,516,515,516,515,516,515,516,523,524,523,524,523,524,523,524,523,524,523,524,523,524,523,524,523,0,0,514,513,514,513,514,513,514,513,514,513,514,513,514,513,514,513,514,513,514,513,514,513,514,513,514,513,514,513,514,521,522,521,522,521,522,521,522,521,522,521,522,521,522,521,522,521,0,0,516,515,516,515,516,515,516,515,516,515,516,515,516,515,516,515,516,515,516,515,516,515,516,515,516,515,516,515,516,523,524,523,524,523,524,523,524,523,524,523,524,523,524,523,524,523,0,0,514,513,514,513,514,513,514,513,514,513,514,513,514,513,514,513,514,513,514,513,514,513,514,513,514,513,514,513,514,521,522,521,522,521,522,521,522,521,522,521,522,521,522,521,522,521,0,0,0,0,0,0,0,0,0,0,0,0,0,0,0,0,0,0,0,0,0,0,0,0,0,0,0,0,0,0,0,0,0,0,0,0,0,0,0,0,0,0,0,0,0,0,0,0,0],"width":48,"height":36,"x":0,"y":0,"opacity":1,"visible":true},{"id":2,"name":"walls","type":"tilelayer","data":[525,525,525,525,525,525,525,525,525,525,525,525,525,525,525,525,525,525,525,525,525,525,525,525,525,525,525,525,525,525,525,525,525,525,525,525,525,525,525,525,525,525,525,525,525,525,525,525,526,526,526,526,526,526,526,526,526,526,526,526,526,526,526,526,526,526,526,526,526,526,526,526,526,526,526,526,526,526,526,526,526,526,526,526,526,526,526,526,526,526,526,526,526,526,526,526,527,527,527,527,527,527,527,527,527,527,527,527,527,527,527,527,527,527,527,527,527,527,527,527,527,527,527,527,527,527,527,527,527,527,527,527,527,527,527,527,527,527,527,527,527,527,527,527,528,0,0,0,0,0,0,0,0,0,0,0,0,0,0,0,0,0,0,0,0,0,0,0,0,0,0,0,529,0,0,0,0,0,0,0,0,0,0,0,0,0,0,0,0,0,0,528,528,0,0,0,0,0,0,0,0,0,0,0,0,0,0,0,0,0,0,0,0,0,0,0,0,0,0,0,530,0,0,0,0,0,0,0,0,0,0,0,0,0,0,0,0,0,0,528,528,0,0,0,0,0,0,0,0,0,0,0,0,0,0,0,0,0,0,0,0,0,0,0,0,0,0,0,531,0,0,0,0,0,0,0,0,0,0,0,0,0,0,0,0,0,0,528,528,0,0,0,0,0,0,0,0,0,0,0,0,0,0,0,0,0,0,0,0,0,0,0,0,0,0,0,529,0,0,0,0,0,0,0,0,0,0,0,0,0,0,0,0,0,0,528,528,0,0,0,0,0,0,0,0,0,0,0,0,0,0,0,0,0,0,0,0,0,0,0,0,0,0,0,530,0,0,0,0,0,0,0,0,0,0,0,0,0,0,0,0,0,0,528,528,0,0,0,0,0,0,0,0,0,0,0,0,0,0,0,0,0,0,0,0,0,0,0,0,0,0,0,531,0,0,0,0,0,0,0,0,0,0,0,0,0,0,0,0,0,0,528,528,0,0,0,0,0,0,0,0,0,0,0,0,0,0,0,0,0,0,0,0,0,0,0,0,0,0,0,529,0,0,0,0,0,0,0,0,0,0,0,0,0,0,0,0,0,0,528,528,0,0,0,0,0,0,0,0,0,0,0,0,0,0,0,0,0,0,0,0,0,0,0,0,0,0,0,530,0,0,0,0,0,0,0,0,0,0,0,0,0,0,0,0,0,0,528,528,0,0,0,0,0,0,0,0,0,0,0,0,0,0,0,0,0,0,0,0,0,0,0,0,0,0,0,531,0,0,0,0,0,0,0,0,0,0,0,0,0,0,0,0,0,0,528,528,525,525,525,525,525,525,525,525,525,525,525,0,0,0,0,525,525,525,525,525,525,525,525,525,525,525,525,0,0,0,0,0,0,525,525,525,525,525,525,525,525,525,525,525,525,525,528,528,526,526,526,526,526,526,526,526,526,526,526,0,0,0,0,526,526,526,526,526,526,526,526,526,526,526,526,0,0,0,0,0,0,526,526,526,526,526,526,526,526,526,526,526,526,526,528,528,527,527,527,527,527,527,527,527,527,527,527,0,0,0,0,527,527,527,527,527,527,527,527,527,527,527,527,0,0,0,0,0,0,527,527,527,527,527,527,527,527,527,527,527,527,527,528,528,0,0,0,0,0,0,0,0,0,0,0,0,0,0,0,0,0,0,0,0,0,0,0,0,0,0,0,0,0,0,0,0,0,0,0,0,0,0,0,0,0,0,0,0,0,0,528,528,0,0,0,0,0,0,0,0,0,0,0,0,0,0,0,0,0,0,0,0,0,0,0,0,0,0,0,529,0,0,0,0,0,0,0,0,0,0,0,0,0,0,0,0,0,0,528,528,0,0,0,0,0,0,0,0,0,0,0,0,0,0,0,0,0,0,0,0,0,0,0,0,0,0,0,530,0,0,0,0,0,0,0,0,0,0,0,0,0,0,0,0,0,0,528,528,0,0,0,0,0,0,0,0,0,0,0,0,0,0,0,0,0,0,0,0,0,0,0,0,0,0,0,531,0,0,0,0,0,0,0,0,0,0,0,0,0,0,0,0,0,0,528,528,0,0,0,0,0,0,0,0,0,0,0,0,0,0,0,0,0,0,0,0,0,0,0,0,0,0,0,529,0,0,0,0,0,0,0,0,0,0,0,0,0,0,0,0,0,0,528,528,0,0,0,0,0,0,0,0,0,0,0,0,0,0,0,0,0,0,0,0,0,0,0,0,0,0,0,530,0,0,0,0,0,0,0,0,0,0,0,0,0,0,0,0,0,0,528,528,0,0,0,0,0,0,0,0,0,0,0,0,0,0,0,0,0,0,0,0,0,0,0,0,0,0,0,531,0,0,0,0,0,0,0,0,0,0,0,0,0,0,0,0,0,0,528,528,0,0,0,0,0,0,0,0,0,0,0,0,0,0,0,0,0,0,0,0,0,0,0,0,0,0,0,0,0,0,0,0,0,0,0,0,0,0,0,0,0,0,0,0,0,0,528,528,0,0,0,0,0,0,0,0,0,0,0,0,0,0,0,0,0,0,0,0,0,0,0,0,0,0,0,0,0,0,0,0,0,0,0,0,0,0,0,0,0,0,0,0,0,0,528,528,0,0,0,0,0,0,0,0,0,0,0,0,0,0,0,0,0,0,0,0,0,0,0,0,0,0,0,0,0,0,0,0,0,0,0,0,0,0,0,0,0,0,0,0,0,0,528,528,0,0,0,0,0,0,0,0,0,0,0,0,0,0,0,0,0,0,0,0,0,0,0,0,0,0,0,0,0,0,0,0,0,0,0,0,0,0,0,0,0,0,0,0,0,0,528,528,0,0,0,0,0,0,0,0,0,0,0,0,0,0,0,0,0,0,0,0,0,0,0,0,0,0,0,0,0,0,0,0,0,0,0,0,0,0,0,0,0,0,0,0,0,0,528,528,0,0,0,0,0,0,0,0,0,0,0,0,0,0,0,0,0,0,0,0,0,0,0,0,0,0,0,0,0,0,0,0,0,0,0,0,0,0,0,0,0,0,0,0,0,0,528,528,0,0,0,0,0,0,0,0,0,0,0,0,0,0,0,0,0,0,0,0,0,0,0,0,0,0,0,0,0,0,0,0,0,0,0,0,0,0,0,0,0,0,0,0,0,0,528,528,0,0,0,0,0,0,0,0,0,0,0,0,0,0,0,0,0,0,0,0,0,0,0,0,0,0,0,0,0,0,0,0,0,0,0,0,0,0,0,0,0,0,0,0,0,0,528,528,0,0,0,0,0,0,0,0,0,0,0,0,0,0,0,0,0,0,0,0,0,0,0,0,0,0,0,0,0,0,0,0,0,0,0,0,0,0,0,0,0,0,0,0,0,0,528,528,0,0,0,0,0,0,0,0,0,0,0,0,0,0,0,0,0,0,0,0,0,0,0,0,0,0,0,0,0,0,0,0,0,0,0,0,0,0,0,0,0,0,0,0,0,0,528,528,0,0,0,0,0,0,0,0,0,0,0,0,0,0,0,0,0,0,0,0,0,0,0,0,0,0,0,0,0,0,0,0,0,0,0,0,0,0,0,0,0,0,0,0,0,0,528,528,0,0,0,0,0,0,0,0,0,0,0,0,0,0,0,0,0,0,0,0,0,0,0,0,0,0,0,0,0,0,0,0,0,0,0,0,0,0,0,0,0,0,0,0,0,0,528,528,0,0,0,0,0,0,0,0,0,0,0,0,0,0,0,0,0,0,0,0,0,0,0,0,0,0,0,0,0,0,0,0,0,0,0,0,0,0,0,0,0,0,0,0,0,0,528,528,525,525,525,525,525,525,525,525,525,525,525,525,525,525,0,0,0,0,525,525,525,525,525,525,525,525,525,525,525,525,525,525,525,525,525,525,525,525,525,525,525,525,525,525,525,525,528],"width":48,"height":36,"x":0,"y":0,"opacity":1,"visible":true},{"id":3,"name":"furniture-below","type":"tilelayer","data":[0,0,0,0,0,0,0,0,0,0,0,0,0,0,0,0,0,0,0,0,0,0,0,0,0,0,0,0,0,0,0,0,0,0,0,0,0,0,0,0,0,0,0,0,0,0,0,0,0,0,0,0,0,0,0,0,0,0,0,0,0,0,0,0,0,0,0,0,0,0,0,0,0,0,0,0,0,0,0,0,0,0,0,0,0,0,0,0,0,0,0,0,0,0,0,0,0,0,0,0,0,0,0,0,0,0,0,0,0,0,0,0,0,0,0,0,0,0,0,0,0,0,0,0,0,0,0,0,0,0,0,0,0,0,0,0,0,0,0,0,0,0,0,0,0,0,0,0,0,0,0,0,0,0,0,0,0,0,0,0,0,0,0,0,0,0,0,0,0,0,0,0,0,0,0,0,0,0,0,0,0,0,0,0,0,0,0,0,0,0,0,0,0,0,0,0,0,0,0,0,0,0,0,0,0,0,0,0,0,0,0,0,0,0,0,0,0,0,0,0,0,0,0,0,0,0,0,0,0,0,0,0,0,0,0,0,0,0,0,0,0,0,0,0,0,0,0,0,0,0,0,0,0,0,0,0,0,0,0,0,0,0,0,0,0,0,0,0,0,0,0,0,0,0,0,0,0,0,0,0,0,0,0,0,0,0,0,0,0,0,0,0,0,0,0,0,0,0,0,0,0,0,0,0,0,0,0,0,0,0,0,0,0,0,0,0,0,0,0,0,0,0,774,775,776,777,778,779,780,781,0,0,0,0,0,0,0,0,0,669,670,671,672,673,674,675,676,677,678,679,0,0,0,0,0,0,0,0,0,0,0,0,0,0,0,0,0,0,0,0,782,783,784,785,786,787,788,789,0,0,0,0,0,0,0,0,0,680,681,682,683,684,685,686,687,688,689,690,0,0,669,670,671,672,673,674,675,676,677,678,679,0,0,0,0,0,0,0,790,791,792,793,794,795,796,797,0,0,840,841,0,0,0,840,841,691,692,693,694,695,696,697,698,699,700,701,0,0,680,681,682,683,684,685,686,687,688,689,690,0,0,0,0,0,0,0,798,799,800,801,802,803,804,805,0,0,842,843,0,0,0,842,843,0,0,0,0,0,0,0,0,0,0,0,0,0,691,692,693,694,695,696,697,698,699,700,701,0,0,0,0,0,0,0,0,0,0,0,0,0,0,0,0,0,844,845,0,0,0,844,845,0,0,0,0,0,0,0,0,0,0,0,0,0,0,0,0,0,0,0,0,0,0,0,0,0,0,0,0,0,0,0,0,0,0,0,0,0,0,0,0,0,0,0,0,0,0,0,0,0,0,0,0,0,0,0,0,0,0,0,0,0,0,0,0,0,0,0,0,0,0,0,0,0,0,0,0,0,0,0,0,0,0,0,0,0,0,0,0,0,0,0,0,0,0,0,0,0,0,0,0,0,0,0,0,0,0,0,0,0,0,0,0,0,0,0,0,0,0,0,0,0,0,0,0,0,0,0,0,0,0,0,0,0,0,0,0,0,0,0,0,0,0,0,0,0,0,0,0,0,0,0,0,0,0,0,0,0,0,0,0,0,0,0,0,0,0,0,0,0,0,0,0,0,0,0,0,0,0,0,0,0,0,0,0,0,0,0,0,0,0,0,0,0,808,0,0,0,808,0,0,0,0,0,0,0,0,0,0,0,0,0,0,0,0,0,0,0,0,0,0,0,0,0,0,0,0,606,607,608,0,621,622,623,0,0,0,0,0,0,0,0,809,0,0,0,809,0,0,0,0,0,0,636,637,638,639,640,641,642,643,644,645,646,0,0,0,0,0,0,0,0,0,0,0,609,610,611,0,624,625,626,0,0,0,0,0,0,0,734,735,736,737,738,739,740,741,0,0,0,0,647,648,649,650,651,652,653,654,655,656,657,0,915,0,0,722,723,724,725,0,0,0,612,613,614,0,627,628,629,0,0,0,0,0,0,0,742,743,744,745,746,747,748,749,0,0,0,0,658,659,660,661,662,663,664,665,666,667,668,0,916,0,0,726,727,728,729,0,0,0,615,616,617,0,630,631,632,0,0,0,0,0,0,0,750,751,752,753,754,755,756,757,0,0,0,0,0,0,0,0,0,0,0,0,0,0,0,0,917,0,0,730,731,732,733,0,0,0,618,619,620,0,633,634,635,0,0,0,0,0,0,0,758,759,760,761,762,763,764,765,0,0,0,831,832,833,0,0,0,0,0,0,0,0,0,0,0,0,0,0,0,0,0,0,0,911,912,913,914,911,912,913,914,0,0,0,0,0,0,0,766,767,768,769,770,771,772,773,0,0,0,834,835,836,0,0,0,0,0,0,0,0,0,0,0,0,0,0,0,722,723,724,725,0,0,0,0,0,0,0,884,885,886,0,0,0,0,0,0,0,0,0,0,0,0,0,0,0,0,837,838,839,0,0,0,0,0,0,0,0,0,0,0,0,0,0,0,726,727,728,729,0,0,0,0,0,0,0,887,888,889,0,0,0,0,0,0,0,0,0,0,0,0,0,0,0,0,0,0,0,0,0,0,0,0,0,0,0,0,0,0,0,0,0,0,730,731,732,733,0,0,0,0,0,0,0,890,891,892,0,0,0,840,841,0,0,0,0,0,0,0,0,0,0,0,702,703,704,705,706,0,0,0,0,0,0,0,0,0,0,0,0,0,0,0,0,0,0,0,0,0,810,811,812,813,814,0,0,0,0,842,843,0,0,0,0,0,0,0,0,0,0,0,707,708,709,710,711,0,0,702,703,704,705,706,0,0,0,0,0,0,0,0,807,0,0,0,0,0,815,816,817,818,819,840,841,0,0,844,845,702,703,704,705,706,0,0,0,0,0,0,712,713,714,715,716,0,0,707,708,709,710,711,0,0,0,0,0,0,0,0,0,0,0,0,0,0,820,821,822,823,824,842,843,0,0,0,0,707,708,709,710,711,0,0,0,0,0,0,717,718,719,720,721,0,0,712,713,714,715,716,0,0,0,0,0,0,0,0,807,0,0,0,0,0,0,0,0,0,0,844,845,0,0,0,0,712,713,714,715,716,0,0,0,0,0,0,0,0,0,0,0,0,0,717,718,719,720,721,0,0,0,0,0,0,0,0,0,0,0,0,0,0,0,0,807,0,0,0,0,0,0,0,0,717,718,719,720,721,722,723,724,725,0,0,0,0,0,0,0,0,0,0,0,0,0,0,0,0,0,0,0,848,849,850,851,852,853,854,876,877,0,0,0,0,0,0,0,0,0,0,0,0,0,0,0,0,726,727,728,729,0,0,893,894,895,896,897,898,0,0,722,723,724,725,0,0,0,0,0,855,856,857,858,859,860,861,878,879,0,0,807,0,0,0,0,0,0,0,722,723,724,725,0,0,730,731,732,733,0,0,899,900,901,902,903,904,0,0,726,727,728,729,0,0,0,0,0,862,863,864,865,866,867,868,880,881,0,0,0,884,885,886,0,0,0,0,726,727,728,729,0,0,0,0,0,0,0,0,905,906,907,908,909,910,0,0,730,731,732,733,0,0,0,0,918,869,870,871,872,873,874,875,882,883,0,0,0,887,888,889,0,0,0,0,730,731,732,733,0,0,0,0,0,0,0,0,0,0,0,0,0,0,0,0,0,0,0,0,0,0,0,0,919,0,0,0,0,0,0,0,0,0,0,0,0,890,891,892,0,0,0,0,0,0,0,0,0,0,0,0,0,0,0,0,0,0,0,0,0,0,0,0,0,0,0,0,0,0,0,0,0,0,0,0,0,0,0,0,0,0,0,0,0,0,0,0,0,0,0,0,0,0,0,0,0,0,0,0,0,0,0,0,0,0,0,0,0,0,0,0,0,0,0,0,0,0,0,0,0,0,0,0,0,0,0,0,0,0,0,0,0,0,0,0,0,0],"width":48,"height":36,"x":0,"y":0,"opacity":1,"visible":true},{"id":4,"name":"furniture-above","type":"tilelayer","data":[0,0,0,0,0,0,0,0,0,0,0,0,0,0,0,0,0,0,0,0,0,0,0,0,0,0,0,0,0,0,0,0,0,0,0,0,0,0,0,0,0,0,0,0,0,0,0,0,0,0,0,0,0,532,533,534,535,536,537,538,539,540,541,542,543,544,545,0,0,0,0,0,0,0,0,0,0,0,920,921,922,923,924,0,588,589,590,591,592,593,0,0,0,0,0,0,0,0,0,0,0,546,547,548,549,550,551,552,553,554,555,556,557,558,559,0,0,0,0,0,0,0,0,0,0,0,925,926,927,928,929,0,594,595,596,597,598,599,0,0,0,0,0,0,0,0,0,0,0,560,561,562,563,564,565,566,567,568,569,570,571,572,573,0,0,0,0,0,0,0,0,0,0,0,0,0,0,0,0,0,600,601,602,603,604,605,0,0,0,0,0,0,0,0,0,0,0,574,575,576,577,578,579,580,581,582,583,584,585,586,587,911,912,913,914,0,0,0,0,0,0,0,0,0,0,0,0,0,0,0,0,0,0,968,969,970,971,972,0,0,0,0,0,948,949,950,951,952,0,0,0,0,0,0,0,0,0,0,0,0,0,0,0,0,0,0,0,0,0,0,0,0,0,0,0,808,0,0,808,0,808,0,0,0,0,0,0,0,0,0,0,0,0,0,0,0,0,0,0,0,0,0,0,0,0,0,0,0,0,0,0,0,0,0,0,0,0,0,0,0,0,0,0,809,0,0,809,0,809,0,0,0,0,0,0,0,0,0,0,0,365,366,0,0,365,366,0,0,0,0,0,0,0,0,0,0,0,0,0,0,0,0,0,0,0,0,0,0,0,0,0,0,0,0,0,0,0,0,0,0,0,0,0,0,0,0,0,0,381,382,0,0,381,382,0,0,0,0,0,0,0,365,366,0,0,365,366,0,0,0,0,0,0,0,0,0,0,0,0,0,0,0,0,0,0,0,0,0,0,0,0,0,0,0,0,0,806,0,0,0,806,0,0,0,0,0,0,0,0,381,382,0,0,381,382,0,0,0,0,0,0,0,0,0,0,0,0,0,0,0,0,0,0,0,0,0,0,0,0,0,0,0,0,0,807,0,0,0,807,0,0,0,0,0,0,0,0,806,0,0,0,806,0,0,0,0,0,0,0,0,0,0,0,0,0,806,0,0,806,0,806,0,0,0,0,0,0,0,0,0,0,0,0,0,0,0,0,0,0,0,0,0,0,0,0,807,0,0,0,807,0,0,0,0,0,0,0,0,0,0,0,0,0,807,0,0,807,0,807,0,0,0,0,0,0,0,0,0,0,0,0,0,0,0,0,0,0,0,0,0,0,0,0,953,954,955,956,957,0,0,0,0,0,0,0,0,0,0,0,0,0,0,0,0,0,0,0,0,0,0,0,0,0,0,0,0,0,0,0,0,0,0,0,0,0,0,0,0,0,0,0,0,0,0,0,0,0,0,0,0,0,0,0,0,0,0,0,0,0,958,959,960,961,962,0,0,0,0,0,0,0,0,0,0,0,0,365,366,0,0,365,366,0,0,0,0,0,0,0,0,0,0,0,0,0,0,0,0,0,0,0,0,0,0,0,0,0,0,0,0,0,0,0,0,0,0,0,0,0,0,0,0,0,0,381,382,0,0,381,382,0,0,0,0,0,0,0,0,0,0,0,0,0,0,0,0,0,0,0,0,0,0,0,0,0,0,0,0,0,0,0,0,0,0,0,0,0,0,0,0,0,0,0,0,0,0,0,0,0,0,0,0,0,0,365,366,0,0,365,366,0,0,365,366,0,0,0,0,0,0,0,0,0,0,0,0,0,0,0,0,0,0,0,0,0,0,0,0,0,0,0,0,0,0,0,0,0,0,0,0,0,0,381,382,0,0,381,382,0,0,381,382,0,0,0,0,0,365,366,0,0,0,0,0,0,0,0,0,0,0,0,0,0,0,0,0,0,0,0,0,0,0,0,0,0,0,0,0,0,0,806,0,0,0,806,0,0,0,806,0,0,0,0,0,0,381,382,0,0,0,0,0,0,0,0,0,0,0,0,0,0,0,0,0,0,0,0,0,0,0,0,0,0,0,0,0,0,0,807,0,0,0,807,0,0,0,807,0,0,0,0,0,0,0,0,0,0,0,0,0,0,0,0,0,0,0,0,0,0,0,0,0,0,0,365,366,0,0,365,366,0,0,0,0,0,0,0,0,0,0,0,0,0,0,0,0,0,0,0,0,0,0,0,0,0,0,0,0,0,0,0,0,0,0,0,0,0,0,0,0,0,0,381,382,0,0,381,382,0,0,0,0,0,0,0,0,0,0,0,0,0,0,0,0,0,0,0,0,0,0,0,365,366,0,0,0,0,0,0,0,0,0,0,0,0,0,0,0,0,0,806,0,0,0,806,0,0,0,0,0,0,0,0,0,0,0,0,0,0,0,0,0,0,0,0,0,0,0,0,381,382,0,0,0,0,0,0,0,0,0,0,0,0,0,0,0,0,0,807,0,0,0,807,0,0,0,0,0,0,0,0,0,0,0,0,0,0,0,0,0,0,0,0,0,0,0,0,0,0,0,0,0,0,0,0,0,0,0,0,0,0,0,0,0,0,0,0,0,0,0,0,0,0,0,0,0,0,365,366,0,0,0,0,0,0,0,0,0,0,0,0,0,0,963,964,965,966,967,0,0,0,0,0,0,0,0,0,0,0,0,0,0,0,0,0,0,0,0,0,0,0,0,0,0,0,381,382,0,0,0,0,0,365,366,0,0,0,0,0,0,0,0,0,0,0,0,0,0,0,0,0,0,0,0,0,0,0,0,0,0,0,0,0,365,366,0,0,0,0,0,0,0,0,806,0,0,0,0,0,0,381,382,0,0,0,0,0,0,0,0,0,846,847,0,0,0,0,0,0,0,0,0,0,0,0,0,0,0,0,0,0,381,382,0,0,0,0,0,0,0,0,807,0,0,0,0,0,0,806,0,0,0,0,0,0,0,0,0,0,0,0,0,0,0,0,0,0,0,0,0,0,0,0,0,0,0,0,0,0,806,0,0,0,0,0,0,0,0,0,0,0,0,0,0,0,0,807,0,0,0,0,0,0,0,0,0,0,0,0,0,0,0,0,0,0,0,0,0,0,0,0,0,0,0,0,0,0,807,0,0,0,365,366,0,0,0,0,0,0,0,0,0,0,0,0,0,0,0,0,0,0,0,0,0,0,0,0,0,0,0,0,0,0,846,847,0,0,0,0,0,0,0,0,0,0,0,0,0,0,381,382,0,0,0,0,0,0,0,0,0,0,0,0,365,366,0,0,0,0,0,0,0,0,0,0,0,0,0,0,0,0,0,0,0,0,0,0,0,0,0,0,365,366,0,0,0,0,0,0,0,0,0,0,0,0,0,0,0,0,0,0,381,382,0,0,0,0,0,0,0,0,0,0,0,0,0,0,0,0,0,0,0,0,0,0,0,0,0,0,381,382,0,0,0,0,0,0,0,0,0,0,0,0,0,0,0,0,0,0,0,0,0,0,0,0,0,0,0,0,0,0,0,0,0,0,0,0,0,0,0,0,0,0,0,0,0,0,0,0,0,0,0,0,0,0,0,0,0,0,0,0,0,0,0,0,0,0,0,0,0,0,0,0,0,0,0,0,0,0,0,0,0,0,0,0,0,0,0,0,0,0,0,0,0,0,0,0,0,0,0,0,0,0,0,0,0,0,0,0,0,0,973,974,975,976,977,978,0,0,0,0,0,0,0,0,0,0,0,0,0,0,0,0,0,0,0,0,0,0,0,0,0,0,0,0,0,0,0,0,0,0,0,0,0,0,0,0,0,0,0,0,0,0,0,0,0,0,0,0,0,0,0,0,0,0,0,0,0,0,0,0,0,0,0,0,0,0,0],"width":48,"height":36,"x":0,"y":0,"opacity":1,"visible":true},{"id":5,"name":"collision","type":"tilelayer","data":[1,1,1,1,1,1,1,1,1,1,1,1,1,1,1,1,1,1,1,1,1,1,1,1,1,1,1,1,1,1,1,1,1,1,1,1,1,1,1,1,1,1,1,1,1,1,1,1,1,1,1,1,1,1,1,1,1,1,1,1,1,1,1,1,1,1,1,1,1,1,1,1,1,1,1,1,1,1,1,1,1,1,1,1,1,1,1,1,1,1,1,1,1,1,1,1,1,1,1,1,1,1,1,1,1,1,1,1,1,1,1,1,1,1,1,1,1,1,1,1,1,1,1,1,1,1,1,1,1,1,1,1,1,1,1,1,1,1,1,1,1,1,1,1,1,0,0,0,0,1,1,1,1,1,1,1,1,1,1,1,1,1,1,0,0,0,0,0,0,0,0,0,1,0,0,0,0,0,0,0,0,0,0,0,0,0,0,0,0,0,0,1,1,0,0,0,0,1,1,1,1,1,1,1,1,1,1,1,1,1,1,0,0,0,0,0,0,0,0,0,1,0,0,0,0,0,0,0,0,0,0,0,0,0,0,0,0,0,0,1,1,0,0,0,0,0,0,0,0,0,0,0,0,0,0,0,0,0,0,0,0,0,0,0,0,0,0,0,1,0,0,0,0,0,0,0,0,0,0,0,0,0,0,0,0,0,0,1,1,0,0,0,0,0,0,0,0,0,0,0,0,0,0,0,0,0,0,0,0,0,0,0,0,0,0,0,1,0,0,0,0,0,0,0,0,0,0,0,0,0,0,0,0,0,0,1,1,0,0,0,0,0,0,0,0,0,0,0,0,0,0,0,0,0,0,0,0,0,0,0,0,0,0,0,1,0,0,0,0,0,1,1,1,1,1,1,1,1,0,0,0,0,0,1,1,0,0,1,1,1,1,1,1,1,1,1,1,1,0,0,0,0,0,0,0,0,0,0,0,0,0,0,1,0,0,0,0,0,1,1,1,1,1,1,1,1,0,0,1,1,0,1,1,1,1,0,0,0,0,0,0,0,0,0,0,0,0,0,1,1,1,1,1,1,1,1,1,1,1,0,1,0,0,0,0,0,1,1,1,1,1,1,1,1,0,0,1,1,0,1,1,1,1,0,0,0,0,0,0,0,0,0,0,0,0,0,0,0,0,0,0,0,0,0,0,0,0,0,1,0,0,0,0,0,0,0,0,0,0,0,0,0,0,0,1,1,0,1,1,1,1,0,0,0,0,0,0,0,0,0,0,0,0,0,0,0,0,0,0,0,0,0,0,0,0,0,1,0,0,0,0,0,0,0,0,0,0,0,0,0,0,0,0,0,0,1,1,1,1,1,1,1,1,1,1,1,1,1,0,0,0,0,1,1,1,1,1,1,1,1,1,1,1,1,0,0,0,0,0,0,1,1,1,1,1,1,1,1,1,1,1,1,1,1,1,1,1,1,1,1,1,1,1,1,1,1,0,0,0,0,1,1,1,1,1,1,1,1,1,1,1,1,0,0,0,0,0,0,1,1,1,1,1,1,1,1,1,1,1,1,1,1,1,1,1,1,1,1,1,1,1,1,1,1,0,0,0,0,1,1,1,1,1,1,1,1,1,1,1,1,0,0,0,0,0,0,1,1,1,1,1,1,1,1,1,1,1,1,1,1,1,0,0,0,0,0,0,0,0,0,0,0,0,0,0,0,0,0,0,0,0,0,0,0,0,0,0,0,0,0,0,0,0,0,0,0,0,1,1,1,0,1,1,1,0,0,0,1,1,0,0,0,0,0,0,0,0,0,0,0,0,0,0,0,0,0,0,0,0,0,0,0,0,0,0,0,1,0,0,0,0,0,0,0,0,1,1,1,0,1,1,1,0,0,0,1,1,0,0,1,1,1,1,1,1,1,1,0,0,0,0,1,1,1,1,1,1,1,1,1,1,1,0,1,1,0,0,0,0,0,0,0,0,1,1,1,0,1,1,1,0,0,0,1,1,0,0,1,1,1,1,1,1,1,1,0,0,0,0,0,0,0,0,0,0,0,0,0,0,0,0,1,1,0,1,1,1,1,0,0,0,1,1,1,0,1,1,1,0,0,0,1,1,0,0,1,1,1,1,1,1,1,1,0,0,0,0,0,0,0,0,0,0,0,0,0,0,0,0,1,1,0,0,0,0,0,0,0,0,1,1,1,0,1,1,1,0,0,0,1,1,0,0,1,1,1,1,1,1,1,1,0,0,0,1,1,1,0,0,0,0,0,0,0,0,0,0,0,1,0,0,0,0,0,0,0,0,0,0,0,0,0,0,0,0,0,0,1,1,0,0,1,1,1,1,1,1,1,1,0,0,0,1,1,1,0,0,0,0,0,0,0,0,0,0,0,1,0,0,0,0,0,0,0,0,0,0,0,0,0,0,1,1,1,0,1,1,0,0,0,0,0,0,0,0,0,0,0,0,0,1,1,1,0,0,0,0,0,0,0,0,0,0,0,0,0,0,0,1,1,1,1,0,0,0,0,0,0,0,1,1,1,0,1,1,0,0,0,0,0,0,0,0,0,0,0,0,0,0,0,0,0,0,0,0,0,0,0,0,0,0,0,0,0,0,0,0,0,0,0,0,0,0,0,0,0,0,1,1,1,0,1,1,1,1,0,0,0,0,0,0,0,0,0,0,0,0,0,0,0,0,0,0,0,0,0,0,0,0,0,0,0,0,0,0,0,0,0,0,0,0,0,1,1,1,1,1,0,0,1,1,1,1,0,0,0,0,0,0,0,0,0,0,0,1,1,1,1,1,0,0,0,0,0,0,0,0,0,0,0,0,0,0,0,0,0,0,0,0,0,1,1,1,1,1,1,1,1,1,1,1,0,0,0,0,0,0,0,0,0,0,0,0,0,0,0,1,0,0,1,1,1,1,1,0,0,0,0,0,0,0,1,1,0,0,0,0,0,1,1,1,1,1,1,1,1,1,0,0,1,1,1,1,1,0,0,0,0,0,0,0,0,0,0,1,0,0,0,0,0,0,1,0,0,0,0,0,0,0,0,0,0,0,0,0,0,0,0,0,0,0,1,1,1,1,0,0,0,0,0,0,1,0,0,0,0,0,0,0,0,0,0,0,0,0,0,0,0,0,1,0,0,0,0,0,0,0,0,0,0,0,0,0,0,0,0,0,0,0,0,0,1,1,0,0,0,0,0,0,1,0,0,0,0,0,0,0,0,0,0,0,0,0,0,0,0,0,0,0,0,0,0,0,1,1,1,1,1,1,1,1,1,0,1,1,0,0,0,0,1,1,0,0,0,0,0,0,0,1,1,1,1,0,0,1,1,1,1,1,1,0,0,0,0,0,0,0,0,0,0,0,1,1,1,1,1,1,1,1,1,0,0,0,0,0,0,0,1,1,0,0,0,0,0,0,0,0,0,0,0,0,0,1,1,1,1,1,1,0,0,1,1,1,1,0,0,0,0,0,1,1,1,1,1,1,1,1,1,0,0,0,1,1,1,0,1,1,0,1,1,1,1,0,0,0,0,0,0,0,0,1,1,1,1,1,1,0,0,0,0,0,0,0,0,0,0,1,1,1,1,1,1,1,1,1,1,0,0,0,1,1,1,0,1,1,0,0,0,0,0,0,0,0,0,0,0,0,0,0,0,0,0,0,0,0,0,0,0,0,0,0,0,0,0,1,0,0,0,0,0,0,0,0,0,0,0,0,1,1,1,0,1,1,0,0,0,0,0,0,0,0,0,0,0,0,0,0,0,0,0,0,0,0,0,0,0,0,0,0,0,0,0,0,0,0,0,0,0,0,0,0,0,0,0,0,0,0,0,0,1,1,1,1,1,1,1,1,1,1,1,1,1,1,1,1,0,0,0,0,1,1,1,1,1,1,1,1,1,1,1,1,1,1,1,1,1,1,1,1,1,1,1,1,1,1,1,1,1],"width":48,"height":36,"x":0,"y":0,"opacity":1,"visible":false},{"id":6,"name":"spawn-points","type":"objectgroup","x":0,"y":0,"opacity":1,"visible":true,"objects":[{"id":1,"name":"desk-ceo","type":"","point":true,"x":80,"y":448,"width":0,"height":0,"rotation":0,"visible":true},{"id":2,"name":"pc-1","type":"","point":true,"x":64,"y":256,"width":0,"height":0,"rotation":0,"visible":true,"properties":[{"name":"monitorOffsetY","type":"int","value":3}]},{"id":3,"name":"pc-2","type":"","point":true,"x":128,"y":256,"width":0,"height":0,"rotation":0,"visible":true,"properties":[{"name":"monitorOffsetY","type":"int","value":3}]},{"id":4,"name":"pc-3","type":"","point":true,"x":64,"y":352,"width":0,"height":0,"rotation":0,"visible":true},{"id":5,"name":"pc-4","type":"","point":true,"x":128,"y":352,"width":0,"height":0,"rotation":0,"visible":true},{"id":6,"name":"pc-5","type":"","point":true,"x":256,"y":288,"width":0,"height":0,"rotation":0,"visible":true},{"id":7,"name":"pc-6","type":"","point":true,"x":320,"y":288,"width":0,"height":0,"rotation":0,"visible":true},{"id":8,"name":"pc-7","type":"","point":true,"x":384,"y":288,"width":0,"height":0,"rotation":0,"visible":true},{"id":9,"name":"pc-8","type":"","point":true,"x":240,"y":416,"width":0,"height":0,"rotation":0,"visible":true},{"id":10,"name":"pc-9","type":"","point":true,"x":352,"y":432,"width":0,"height":0,"rotation":0,"visible":true},{"id":11,"name":"pc-10","type":"","point":true,"x":48,"y":528,"width":0,"height":0,"rotation":0,"visible":true},{"id":12,"name":"pc-11","type":"","point":true,"x":144,"y":496,"width":0,"height":0,"rotation":0,"visible":true},{"id":13,"name":"pc-12","type":"","point":true,"x":368,"y":512,"width":0,"height":0,"rotation":0,"visible":true},{"id":14,"name":"warroom-seat-1","type":"","point":true,"x":64,"y":144,"width":0,"height":0,"rotation":0,"visible":true},{"id":15,"name":"warroom-seat-2","type":"","point":true,"x":128,"y":144,"width":0,"height":0,"rotation":0,"visible":true},{"id":16,"name":"warroom-seat-3","type":"","point":true,"x":272,"y":160,"width":0,"height":0,"rotation":0,"visible":true},{"id":17,"name":"warroom-seat-4","type":"","point":true,"x":336,"y":160,"width":0,"height":0,"rotation":0,"visible":true},{"id":18,"name":"desk-deploy-1","type":"","point":true,"x":496,"y":304,"width":0,"height":0,"rotation":0,"visible":true},{"id":19,"name":"desk-deploy-2","type":"","point":true,"x":528,"y":368,"width":0,"height":0,"rotation":0,"visible":true},{"id":20,"name":"cafe-seat-1","type":"","point":true,"x":544,"y":400,"width":0,"height":0,"rotation":0,"visible":true},{"id":21,"name":"cafe-seat-2","type":"","point":true,"x":544,"y":432,"width":0,"height":0,"rotation":0,"visible":true},{"id":22,"name":"cafe-seat-3","type":"","point":true,"x":672,"y":448,"width":0,"height":0,"rotation":0,"visible":true},{"id":23,"name":"cafe-seat-4","type":"","point":true,"x":672,"y":480,"width":0,"height":0,"rotation":0,"visible":true},{"id":24,"name":"cafe-stand-coffee","type":"","point":true,"x":496,"y":528,"width":0,"height":0,"rotation":0,"visible":true},{"id":25,"name":"cafe-stand-vending","type":"","point":true,"x":624,"y":528,"width":0,"height":0,"rotation":0,"visible":true},{"id":26,"name":"entrance","type":"","point":true,"x":256,"y":544,"width":0,"height":0,"rotation":0,"visible":true}]},{"id":7,"name":"zones","type":"objectgroup","x":0,"y":0,"opacity":1,"visible":true,"objects":[{"id":27,"name":"wing-engineering","type":"","x":16,"y":240,"width":432,"height":320,"rotation":0,"visible":true},{"id":28,"name":"wing-warroom","type":"","x":16,"y":48,"width":432,"height":144,"rotation":0,"visible":true},{"id":29,"name":"wing-meeting","type":"","x":480,"y":48,"width":272,"height":144,"rotation":0,"visible":true},{"id":30,"name":"wing-deploy","type":"","x":480,"y":240,"width":272,"height":144,"rotation":0,"visible":true},{"id":31,"name":"wing-break","type":"","x":480,"y":384,"width":272,"height":176,"rotation":0,"visible":true},{"id":32,"name":"boardroom","type":"","x":544,"y":80,"width":128,"height":112,"rotation":0,"visible":true}]}],"tilesets":[{"firstgid":1,"image":"procedural:tech-office","imagewidth":256,"imageheight":992,"tilewidth":16,"tileheight":16,"columns":16,"tilecount":992,"name":"tech-office","margin":0,"spacing":0}],"properties":[{"name":"generator","type":"string","value":"tools/gen-tech-office.cjs — edit composition and officeLayout.ts; validate before writing."},{"name":"proceduralAtlas","type":"string","value":"tech-office"},{"name":"propPlacements","type":"string","value":"[{\"key\":\"glass\",\"x\":28,\"y\":3,\"layer\":\"walls\"},{\"key\":\"glass\",\"x\":28,\"y\":6,\"layer\":\"walls\"},{\"key\":\"glass\",\"x\":28,\"y\":9,\"layer\":\"walls\"},{\"key\":\"glass\",\"x\":28,\"y\":16,\"layer\":\"walls\"},{\"key\":\"glass\",\"x\":28,\"y\":19,\"layer\":\"walls\"},{\"key\":\"screen\",\"x\":5,\"y\":1,\"layer\":\"furniture-above\"},{\"key\":\"signOps\",\"x\":3,\"y\":5,\"layer\":\"furniture-above\"},{\"key\":\"console\",\"x\":3,\"y\":7,\"layer\":\"furniture-below\"},{\"key\":\"console\",\"x\":16,\"y\":8,\"layer\":\"furniture-below\"},{\"key\":\"plant\",\"x\":1,\"y\":9,\"layer\":\"furniture-below\"},{\"key\":\"cable\",\"x\":19,\"y\":4,\"layer\":\"furniture-above\"},{\"key\":\"island\",\"x\":3,\"y\":17,\"layer\":\"furniture-below\"},{\"key\":\"bench\",\"x\":15,\"y\":16,\"layer\":\"furniture-below\"},{\"key\":\"corner\",\"x\":14,\"y\":24,\"layer\":\"furniture-below\"},{\"key\":\"corner\",\"x\":21,\"y\":25,\"layer\":\"furniture-below\"},{\"key\":\"corner\",\"x\":3,\"y\":26,\"layer\":\"furniture-below\"},{\"key\":\"standing\",\"x\":2,\"y\":31,\"layer\":\"furniture-below\"},{\"key\":\"standing\",\"x\":8,\"y\":29,\"layer\":\"furniture-below\"},{\"key\":\"standing\",\"x\":22,\"y\":30,\"layer\":\"furniture-below\"},{\"key\":\"planter\",\"x\":14,\"y\":20,\"layer\":\"furniture-below\"},{\"key\":\"plant\",\"x\":1,\"y\":24,\"layer\":\"furniture-below\"},{\"key\":\"cooler\",\"x\":27,\"y\":17,\"layer\":\"furniture-below\"},{\"key\":\"signLab\",\"x\":17,\"y\":12,\"layer\":\"furniture-above\"},{\"key\":\"server\",\"x\":37,\"y\":15,\"layer\":\"furniture-below\"},{\"key\":\"network\",\"x\":41,\"y\":15,\"layer\":\"furniture-below\"},{\"key\":\"cable\",\"x\":36,\"y\":20,\"layer\":\"furniture-below\"},{\"key\":\"cable\",\"x\":40,\"y\":20,\"layer\":\"furniture-below\"},{\"key\":\"standing\",\"x\":30,\"y\":17,\"layer\":\"furniture-below\"},{\"key\":\"standing\",\"x\":32,\"y\":21,\"layer\":\"furniture-below\"},{\"key\":\"shelf\",\"x\":43,\"y\":21,\"layer\":\"furniture-below\"},{\"key\":\"signDeploy\",\"x\":35,\"y\":13,\"layer\":\"furniture-above\"},{\"key\":\"window\",\"x\":30,\"y\":1,\"layer\":\"furniture-above\"},{\"key\":\"whiteboard\",\"x\":36,\"y\":1,\"layer\":\"furniture-above\"},{\"key\":\"meeting\",\"x\":34,\"y\":6,\"layer\":\"furniture-below\"},{\"key\":\"chairNorth\",\"x\":35,\"y\":5,\"layer\":\"furniture-above\"},{\"key\":\"chair\",\"x\":35,\"y\":10,\"layer\":\"furniture-above\"},{\"key\":\"chairNorth\",\"x\":38,\"y\":5,\"layer\":\"furniture-above\"},{\"key\":\"chair\",\"x\":38,\"y\":10,\"layer\":\"furniture-above\"},{\"key\":\"chairNorth\",\"x\":40,\"y\":5,\"layer\":\"furniture-above\"},{\"key\":\"chair\",\"x\":40,\"y\":10,\"layer\":\"furniture-above\"},{\"key\":\"plant\",\"x\":44,\"y\":8,\"layer\":\"furniture-below\"},{\"key\":\"signMeet\",\"x\":41,\"y\":4,\"layer\":\"furniture-above\"},{\"key\":\"sofa\",\"x\":40,\"y\":24,\"layer\":\"furniture-below\"},{\"key\":\"plant\",\"x\":45,\"y\":25,\"layer\":\"furniture-below\"},{\"key\":\"cafeTable\",\"x\":33,\"y\":26,\"layer\":\"furniture-above\"},{\"key\":\"cafeTable\",\"x\":41,\"y\":29,\"layer\":\"furniture-above\"},{\"key\":\"coffee\",\"x\":31,\"y\":29,\"layer\":\"furniture-below\"},{\"key\":\"fridge\",\"x\":38,\"y\":29,\"layer\":\"furniture-below\"},{\"key\":\"shelf\",\"x\":43,\"y\":31,\"layer\":\"furniture-below\"},{\"key\":\"bin\",\"x\":30,\"y\":32,\"layer\":\"furniture-below\"},{\"key\":\"signBreak\",\"x\":31,\"y\":24,\"layer\":\"furniture-above\"},{\"key\":\"reception\",\"x\":14,\"y\":30,\"layer\":\"furniture-below\"},{\"key\":\"signEntry\",\"x\":19,\"y\":34,\"layer\":\"furniture-above\"},{\"key\":\"chair\",\"x\":5,\"y\":28,\"layer\":\"furniture-above\"},{\"key\":\"chairNorth\",\"x\":4,\"y\":15,\"layer\":\"furniture-below\"},{\"key\":\"chairNorth\",\"x\":8,\"y\":15,\"layer\":\"furniture-below\"},{\"key\":\"chair\",\"x\":4,\"y\":22,\"layer\":\"furniture-above\"},{\"key\":\"chair\",\"x\":8,\"y\":22,\"layer\":\"furniture-above\"},{\"key\":\"chair\",\"x\":16,\"y\":18,\"layer\":\"furniture-above\"},{\"key\":\"chair\",\"x\":20,\"y\":18,\"layer\":\"furniture-above\"},{\"key\":\"chair\",\"x\":24,\"y\":18,\"layer\":\"furniture-above\"},{\"key\":\"chair\",\"x\":15,\"y\":26,\"layer\":\"furniture-above\"},{\"key\":\"chair\",\"x\":22,\"y\":27,\"layer\":\"furniture-above\"},{\"key\":\"chair\",\"x\":4,\"y\":9,\"layer\":\"furniture-above\"},{\"key\":\"chair\",\"x\":8,\"y\":9,\"layer\":\"furniture-above\"},{\"key\":\"chair\",\"x\":17,\"y\":10,\"layer\":\"furniture-above\"},{\"key\":\"chair\",\"x\":21,\"y\":10,\"layer\":\"furniture-above\"}]"}]}
