{"compressionlevel":-1,"infinite":false,"orientation":"orthogonal","renderorder":"right-down","width":38,"height":24,"tilewidth":16,"tileheight":16,"nextlayerid":8,"nextobjectid":21,"version":"1.10","tiledversion":"1.10.2","type":"map","tilesets":[{"firstgid":1,"columns":16,"image":"../tilesets/office-tileset.png","imageheight":512,"imagewidth":256,"margin":0,"name":"office-tileset","spacing":0,"tilecount":512,"tileheight":16,"tilewidth":16},{"firstgid":513,"source":"A5 Office Floors & Walls.tsx"},{"firstgid":1025,"source":"interiors.tsx"}],"layers":[{"id":1,"name":"floor","type":"tilelayer","data":[0,0,0,0,0,0,0,0,0,0,0,0,0,0,0,0,0,0,0,0,0,0,0,0,0,0,0,0,0,0,0,0,0,0,0,0,0,0,0,784,783,784,783,784,783,784,783,784,783,784,783,784,783,784,783,784,783,784,783,784,783,784,783,784,783,784,783,784,783,784,783,784,783,784,783,0,0,800,799,800,799,800,799,800,799,800,799,800,799,800,799,800,799,800,799,800,799,800,799,800,799,800,799,800,799,800,799,800,799,800,799,800,799,0,0,784,783,784,783,784,783,784,783,784,783,784,783,784,783,784,783,784,783,784,783,784,783,784,783,784,783,784,783,784,783,784,783,784,783,784,783,0,0,800,799,800,799,800,799,800,799,800,799,800,799,800,799,800,799,800,799,800,799,800,799,800,799,800,799,800,799,800,799,800,799,800,799,800,799,0,0,784,783,784,783,784,783,784,783,784,783,784,783,784,783,784,783,784,783,784,783,784,783,784,783,784,783,784,783,784,783,784,783,784,783,784,783,0,0,800,799,800,799,800,799,800,799,800,799,800,799,800,799,800,799,800,799,800,799,800,799,800,799,800,799,800,799,800,799,800,799,800,799,800,799,0,0,784,783,784,783,784,783,784,783,784,783,784,783,784,783,784,783,784,783,784,783,784,783,784,783,784,783,784,783,784,783,784,783,784,783,784,783,0,0,800,799,800,799,800,799,800,799,800,799,800,799,800,799,800,799,800,799,800,799,800,799,800,799,800,799,800,799,800,799,800,799,800,799,800,799,0,0,784,783,784,783,784,783,784,783,784,783,784,783,784,783,784,783,784,783,784,783,784,783,784,783,784,783,784,783,784,783,784,783,784,783,784,783,0,0,800,799,800,799,800,799,800,799,800,799,800,799,800,799,800,799,800,799,800,799,800,799,800,799,800,799,800,799,800,799,800,799,800,799,800,799,0,0,784,783,784,783,784,783,784,783,784,783,784,783,784,783,784,783,784,783,784,783,784,783,784,783,784,783,784,783,784,783,784,783,784,783,784,783,0,0,800,799,800,799,800,799,800,799,800,799,800,799,800,799,800,799,800,799,800,799,800,799,800,799,800,799,800,799,800,799,800,799,800,799,800,799,0,0,784,783,784,783,784,783,784,783,784,783,784,783,784,783,784,783,784,783,784,783,784,783,784,783,784,783,784,783,784,783,784,783,784,783,784,783,0,0,800,799,800,799,800,799,800,799,800,799,800,799,800,799,800,799,800,799,800,799,800,799,800,799,800,799,800,799,800,799,800,799,800,799,800,799,0,0,784,783,784,783,784,783,784,783,784,783,784,783,784,783,784,783,784,783,784,783,784,783,784,783,784,783,784,783,784,783,784,783,784,783,784,783,0,0,800,799,800,799,800,799,800,799,800,799,800,799,800,799,800,799,800,799,800,799,800,799,800,799,800,799,800,799,800,799,1698,1699,800,799,800,799,0,0,784,783,784,783,784,783,784,783,784,783,784,783,784,783,784,783,784,783,784,783,784,783,784,783,784,783,784,783,784,783,1714,1715,784,783,784,783,0,0,800,799,800,799,800,799,800,799,800,799,800,799,800,799,800,799,800,799,800,799,800,799,800,799,800,799,800,799,800,799,800,799,800,799,800,799,0,0,784,783,784,783,784,783,784,783,784,783,784,783,784,783,784,783,784,783,784,783,784,783,784,783,784,783,784,783,784,783,784,783,784,783,784,783,0,0,800,799,800,799,800,799,800,799,800,799,800,799,800,799,800,799,800,799,800,799,800,799,800,799,800,799,800,799,800,799,800,799,800,799,800,799,0,0,784,783,784,783,784,783,784,783,784,783,784,783,784,783,784,783,784,783,784,783,784,783,784,783,784,783,784,783,784,783,784,783,784,783,784,783,0,0,800,799,800,799,800,799,800,799,800,799,800,799,800,799,800,799,800,799,800,799,800,799,800,799,800,799,800,799,800,799,800,799,800,799,800,799,0,0,0,0,0,0,0,0,0,0,0,0,0,0,0,0,0,0,0,0,0,0,0,0,0,0,0,0,0,0,0,0,0,0,0,0,0,0,0],"width":38,"height":24,"x":0,"y":0,"opacity":1,"visible":true},{"id":2,"name":"walls","type":"tilelayer","data":[514,522,522,522,522,522,522,522,522,522,522,522,522,522,522,522,522,522,522,522,522,522,522,522,522,522,522,522,522,522,522,522,522,522,522,522,522,517,530,554,554,554,554,554,554,554,554,554,554,554,554,554,554,554,554,554,554,554,554,554,554,554,554,554,554,554,554,554,554,554,554,554,554,554,554,533,530,570,570,570,570,570,570,570,570,570,570,570,570,570,570,570,570,570,570,570,570,570,570,570,570,570,570,570,570,570,570,570,570,570,570,570,570,533,530,0,0,0,0,0,0,0,0,0,0,0,0,0,0,0,0,611,611,0,0,0,0,0,0,0,0,0,0,0,0,0,0,0,0,0,0,533,530,0,0,0,0,0,0,0,0,0,0,0,0,0,0,0,0,643,643,0,0,0,0,0,0,0,0,0,0,0,0,0,0,0,0,0,0,533,530,0,0,0,0,0,0,0,0,0,0,0,0,0,0,0,0,643,643,0,0,0,0,0,0,0,0,0,0,0,0,0,0,0,0,0,0,533,530,0,0,0,0,0,0,0,0,0,0,0,0,0,0,0,0,643,643,0,0,0,0,0,0,0,0,0,0,0,0,0,0,0,0,0,0,533,530,0,0,0,0,0,0,0,0,0,0,0,0,0,0,0,0,643,643,0,0,0,0,0,0,0,0,0,0,0,0,0,0,0,0,0,0,533,530,0,0,0,0,0,0,0,0,0,0,0,0,0,0,0,0,643,643,0,0,0,0,0,0,0,0,0,0,0,0,0,0,0,0,0,0,533,530,0,0,0,0,0,0,0,0,0,0,0,0,0,0,0,0,643,643,0,0,0,0,0,0,0,0,0,0,0,0,0,0,0,0,0,0,533,530,522,522,522,522,522,522,0,0,522,522,522,522,522,522,522,522,522,522,522,522,522,522,522,0,0,522,522,522,522,522,522,522,522,522,522,522,533,530,554,554,554,554,554,554,0,0,554,554,554,554,554,554,554,554,554,554,554,554,554,554,554,0,0,554,554,554,554,554,554,554,554,554,554,554,533,530,570,570,570,570,570,570,0,0,570,570,570,570,570,570,570,570,570,570,570,570,570,570,570,0,0,570,570,570,570,570,570,570,570,570,570,570,533,530,0,0,0,0,0,0,0,0,0,0,0,0,0,0,0,0,0,0,0,0,0,0,0,0,0,0,611,611,0,0,0,0,0,0,0,0,533,530,0,0,0,0,0,0,0,0,0,0,0,0,0,0,0,0,0,0,0,0,0,0,0,0,0,0,643,643,0,0,0,0,0,0,0,0,533,530,0,0,0,0,0,0,0,0,0,0,0,0,0,0,0,0,0,0,0,0,0,0,0,0,0,0,643,643,0,0,0,0,0,0,0,0,533,530,0,0,0,0,0,0,0,0,0,0,0,0,0,0,0,0,0,0,0,0,0,0,0,0,0,0,643,643,0,0,0,0,0,0,0,0,533,530,0,0,0,0,0,0,0,0,0,0,0,0,0,0,0,0,0,0,0,0,0,0,0,0,0,0,0,0,0,0,0,0,0,0,0,0,533,530,0,0,0,0,0,0,0,0,0,0,0,0,0,0,0,0,0,0,0,0,0,0,0,0,0,0,0,0,0,0,0,0,0,0,0,0,533,530,0,0,0,0,0,0,0,0,0,0,0,0,0,0,0,0,0,0,0,0,0,0,0,0,0,0,643,643,0,0,0,0,0,0,0,0,533,530,0,0,0,0,0,0,0,0,0,0,0,0,0,0,0,0,0,0,0,0,0,0,0,0,0,0,643,643,0,0,0,0,0,0,0,0,533,530,0,0,0,0,0,0,0,0,0,0,0,0,0,0,0,0,0,0,0,0,0,0,0,0,0,0,643,643,0,0,0,0,0,0,0,0,533,530,0,0,0,0,0,0,0,0,0,0,0,0,0,0,0,0,0,0,0,0,0,0,0,0,0,0,643,643,0,0,0,0,0,0,0,0,533,578,579,579,579,579,579,579,579,579,579,579,579,579,579,579,579,579,0,579,579,579,579,579,579,579,579,579,579,579,579,579,579,579,579,579,579,579,581],"width":38,"height":24,"x":0,"y":0,"opacity":1,"visible":true},{"id":3,"name":"furniture-below","type":"tilelayer","data":[0,0,0,0,0,0,0,0,0,0,0,0,0,0,0,0,0,0,0,0,0,0,0,0,0,0,0,0,0,0,0,0,0,0,0,0,0,0,0,0,0,0,0,0,0,0,0,0,0,0,0,0,0,0,0,0,0,0,0,0,0,0,0,0,0,0,0,0,0,0,0,0,0,0,0,0,0,0,0,0,0,0,0,0,0,0,0,0,0,0,0,0,0,0,0,0,0,0,0,0,0,0,0,0,0,0,0,0,0,0,0,0,0,0,0,0,0,0,0,0,0,0,0,0,0,0,0,0,0,0,0,0,0,0,0,0,0,0,0,0,0,0,0,0,0,0,0,0,0,0,0,0,0,0,0,0,0,0,0,0,0,0,0,0,0,0,0,0,0,0,0,0,1025,1026,1027,0,0,1025,1026,1027,0,0,0,0,1025,1026,1027,0,0,0,0,0,0,470,0,0,0,257,257,257,257,0,0,0,0,0,0,0,0,0,1041,1042,1043,0,0,1041,1042,1043,0,470,0,0,1041,1042,1043,0,0,0,0,0,0,0,0,0,1610612898,1610612914,2684354789,2684354789,1610612914,1610612930,260,0,0,0,0,0,0,0,1057,1058,1059,0,0,1057,1058,1059,0,0,0,0,1057,1058,1059,0,0,0,0,0,0,0,0,0,0,0,0,0,0,0,0,0,0,0,0,0,0,0,1073,1074,1075,0,0,1073,1074,1075,0,0,0,0,1073,1074,1075,0,0,0,0,0,0,0,0,0,0,0,0,0,0,0,0,0,0,0,0,0,0,0,0,472,0,297,0,0,0,0,0,0,0,0,0,0,0,297,0,0,0,0,0,0,0,0,0,0,0,0,0,0,0,0,0,0,0,0,0,0,0,0,0,0,0,0,0,0,0,0,0,0,0,0,0,0,0,0,0,0,0,0,0,0,0,0,0,0,0,0,0,0,0,0,0,0,0,0,0,0,0,0,0,0,0,0,0,0,0,0,0,0,0,0,0,0,0,0,0,0,0,0,0,0,0,0,0,0,0,0,0,0,0,0,0,0,0,0,0,0,0,0,0,0,0,0,0,0,0,0,0,0,0,0,0,0,0,0,0,0,0,0,0,0,0,0,0,0,0,0,0,0,0,0,0,0,0,0,0,0,0,0,0,0,0,0,0,0,0,0,0,0,0,0,0,0,0,0,0,0,0,0,0,0,0,0,0,0,0,0,0,0,0,0,0,0,0,0,0,0,0,0,0,0,0,0,0,0,0,0,0,0,0,0,0,0,0,0,0,0,0,0,2,3,4,2,3,4,2,3,4,2,3,4,2,3,4,0,0,469,0,0,0,0,1041,1042,1043,0,0,0,1240,1241,1242,0,1239,0,0,1143,1143,0,0,289,0,0,289,0,0,289,0,0,289,0,0,289,0,0,0,0,0,0,0,0,1044,0,1061,0,0,0,1256,1257,1258,0,0,0,0,0,0,0,0,305,0,0,305,0,0,305,0,0,305,0,0,305,0,0,0,0,0,305,305,0,1073,1074,1075,0,0,0,0,0,0,0,0,0,0,0,0,0,0,0,0,0,0,0,0,0,0,0,0,0,0,0,0,0,0,0,0,0,0,39,0,0,0,0,0,0,0,1272,1273,1274,1275,0,1239,0,0,0,0,0,0,2,3,4,2,3,4,2,3,4,2,3,4,0,0,0,0,305,305,0,0,0,297,0,0,0,0,0,0,0,0,0,0,0,0,0,0,0,0,0,289,0,0,289,0,0,289,0,0,289,0,0,0,0,0,0,0,269,191,192,0,0,0,0,0,0,0,0,0,0,0,0,0,0,0,0,0,0,305,0,0,305,0,0,305,0,0,305,0,0,0,0,38,40,39,285,207,208,2248,0,0,0,0,0,0,0,0,0,0,0,0,0,0,0,0,0,0,0,0,0,0,0,0,0,0,0,0,0,0,0,54,56,55,301,223,224,2264,0,0,0,0,0,0,0,0,0,0,0,0,0,0,0,0,0,0,0,0,0,0,0,0,0,0,0,0,0,0,0,0,0,0,0,0,472,2280,0,0,0,0,0,0,0,0,0,0,0,0,0,0,0,0,0,0,0,0,0,0,0,0,0,0,0,0,0,0,0,0,0,0,0,0,0,0,0],"width":38,"height":24,"x":0,"y":0,"opacity":1,"visible":true},{"id":4,"name":"furniture-above","type":"tilelayer","data":[0,0,0,0,0,0,0,0,0,0,0,0,0,0,0,0,0,0,0,0,0,0,0,0,0,0,0,0,0,0,0,0,0,0,0,0,0,0,0,0,0,0,0,0,0,0,0,0,0,0,0,0,0,0,0,0,0,0,0,0,0,0,0,0,0,0,0,0,0,0,0,0,0,0,0,0,0,0,0,0,0,0,0,0,0,0,0,0,0,0,0,0,0,0,0,0,0,0,0,0,0,0,0,0,0,0,0,0,0,0,0,0,0,0,0,0,0,0,0,407,0,0,0,0,406,0,0,0,0,0,0,0,0,0,0,0,0,0,0,0,0,0,0,0,0,0,0,0,0,0,0,0,0,0,0,0,0,0,0,0,0,0,0,0,0,0,0,0,0,0,0,0,0,0,0,0,0,0,0,0,0,0,0,0,0,0,0,0,0,0,0,0,0,0,0,0,0,0,0,0,0,0,0,0,0,0,0,0,0,0,0,0,0,0,0,0,0,0,0,0,0,0,0,0,0,0,0,0,0,0,0,0,0,0,451,0,0,0,0,395,0,0,0,0,0,0,0,0,0,0,0,0,0,0,0,0,0,0,0,0,0,0,0,0,0,0,0,0,0,0,0,0,0,0,0,0,0,0,0,0,0,0,0,0,0,0,0,0,0,0,0,0,0,0,0,0,0,0,0,0,0,0,0,0,0,0,0,0,0,0,0,0,0,0,0,0,0,0,0,0,0,0,0,0,0,0,0,0,0,0,0,0,0,0,0,0,0,0,0,0,0,0,0,0,0,0,0,0,0,0,0,0,0,0,0,0,0,0,0,0,0,0,0,0,0,0,0,0,0,0,0,0,0,0,0,0,0,0,0,0,0,0,0,0,0,0,0,0,0,0,0,0,0,0,0,0,0,0,0,0,0,0,0,0,0,0,0,0,0,0,0,0,0,0,0,0,0,0,0,0,0,0,0,0,0,0,0,0,0,0,0,0,0,0,0,0,0,0,0,0,0,0,0,0,0,0,0,0,0,0,0,0,0,0,0,0,0,0,0,0,0,0,0,0,0,0,0,0,0,0,0,0,0,0,0,0,0,0,0,0,0,0,0,0,0,0,0,0,0,0,0,0,0,0,0,0,0,0,0,0,0,0,0,0,0,0,0,365,366,0,365,366,0,365,366,0,365,366,0,365,366,0,0,0,0,0,0,0,0,0,0,0,0,0,0,0,0,0,0,0,0,0,0,0,0,381,382,0,381,382,0,381,382,0,381,382,0,381,382,0,0,0,0,0,0,0,0,0,0,0,0,0,0,0,0,0,0,0,0,0,0,0,18,19,20,18,19,20,18,19,20,18,19,20,18,19,20,0,0,0,0,0,0,0,0,1610613812,0,0,0,0,0,0,0,0,0,0,0,0,0,0,0,0,0,0,0,0,0,0,0,0,0,0,0,0,0,0,0,0,0,0,0,0,0,0,0,0,0,0,0,0,0,0,0,0,0,0,0,0,0,0,0,0,365,366,0,365,366,0,365,366,0,365,366,0,0,0,0,1650,1650,0,0,0,281,0,0,0,0,0,0,0,0,0,0,0,0,0,0,0,0,0,381,382,0,381,382,0,381,382,0,381,382,0,0,0,0,0,0,0,0,0,0,0,0,0,0,0,0,0,0,0,0,0,0,0,0,0,0,18,19,20,18,19,20,18,19,20,18,19,20,0,0,0,313,0,0,0,0,0,0,0,0,0,0,0,0,0,0,0,0,0,0,0,0,0,0,0,0,0,0,0,0,0,0,0,0,0,0,0,0,0,329,330,0,0,0,0,0,0,0,0,0,0,0,0,0,0,0,0,0,0,0,0,0,0,0,0,0,0,0,0,0,0,0,0,0,0,0,0,0,0,0,0,0,0,0,0,0,0,0,0,0,0,0,0,0,0,0,0,0,0,0,0,0,0,0,0,0,0,0,0,0,0,0,0,0,0,0,0,0,0,0,0,0,0,0,0,0,0,0,0,0,0,0,0,0,0,0,0,0,0,0,0,0,0,0,0,0,0,0,0,0,0,0,0,0,0,0,0,0,0,0,0],"width":38,"height":24,"x":0,"y":0,"opacity":1,"visible":true},{"id":5,"name":"collision","type":"tilelayer","data":[1,1,1,1,1,1,1,1,1,1,1,1,1,1,1,1,1,1,1,1,1,1,1,1,1,1,1,1,1,1,1,1,1,1,1,1,1,1,1,1,1,1,1,1,1,1,1,1,1,1,1,1,1,1,1,1,1,1,1,1,1,1,1,1,1,1,1,1,1,1,1,1,1,1,1,1,1,1,1,1,1,1,1,1,1,1,1,1,1,1,1,1,1,1,1,1,1,1,1,1,1,1,1,1,1,1,1,1,1,1,1,1,1,1,1,0,0,0,0,0,0,0,0,0,0,0,0,0,0,0,0,1,1,0,0,0,0,0,0,0,0,0,0,0,0,0,0,0,0,0,0,1,1,0,0,0,0,0,0,0,0,0,0,0,0,0,0,0,0,1,1,0,1,1,1,0,0,1,1,1,0,0,0,0,1,1,1,0,0,1,1,0,0,0,0,0,0,1,1,1,1,0,0,0,0,0,0,1,1,0,1,1,1,0,0,1,1,1,0,0,0,0,1,1,1,0,0,1,1,0,0,0,0,0,1,1,1,1,1,1,1,0,0,0,0,1,1,0,1,1,1,0,0,1,1,1,0,0,0,0,1,1,1,0,0,1,1,0,0,0,0,0,0,0,0,0,0,0,0,0,0,0,0,1,1,0,1,1,1,0,0,1,1,1,0,0,0,0,1,1,1,0,0,1,1,0,0,0,0,0,0,0,0,0,0,0,0,0,0,0,0,1,1,0,0,0,0,0,0,0,0,0,0,0,0,0,0,0,0,0,0,1,1,0,0,0,0,0,0,0,0,0,0,0,0,0,0,0,0,1,1,0,0,0,0,0,0,0,0,0,0,0,0,0,0,0,0,0,0,1,1,1,1,1,1,1,1,0,0,1,1,1,1,1,1,1,1,1,1,1,1,1,1,1,0,0,1,1,1,1,1,1,1,1,1,1,1,1,1,1,1,1,1,1,1,0,0,1,1,1,1,1,1,1,1,1,1,1,1,1,1,1,0,0,1,1,1,1,1,1,1,1,1,1,1,1,1,1,1,1,1,1,1,0,0,1,1,1,1,1,1,1,1,1,1,1,1,1,1,1,0,0,1,1,1,1,1,1,1,1,1,1,1,1,1,0,0,0,0,0,0,0,0,0,0,0,0,0,0,0,0,0,0,0,0,0,0,0,0,0,0,1,1,0,0,0,0,0,0,0,0,1,1,0,0,0,0,0,0,0,0,0,0,0,1,1,1,1,1,1,1,1,1,1,1,1,1,1,1,1,1,0,0,0,0,0,1,1,1,1,1,0,1,1,1,0,1,0,0,1,1,0,1,0,1,1,0,1,1,0,1,1,0,1,1,0,1,1,1,0,0,0,0,0,1,1,1,1,1,0,1,1,1,0,0,0,0,0,0,0,0,0,0,0,0,0,0,0,0,0,0,0,0,0,0,1,1,0,0,0,0,0,1,1,1,1,1,0,0,0,0,0,0,0,0,0,0,0,0,0,0,0,0,0,0,0,0,0,0,0,0,0,0,0,0,0,0,1,1,1,0,0,0,1,1,0,0,0,0,0,0,0,1,0,0,0,0,0,0,1,1,1,1,1,1,1,1,1,1,1,1,0,0,0,0,0,0,0,0,0,1,1,1,0,0,0,0,0,0,0,0,0,0,0,0,0,0,1,0,1,1,0,1,1,0,1,1,0,1,1,1,0,1,0,0,1,1,1,0,1,1,0,0,0,0,0,0,0,0,0,0,0,0,0,0,0,0,0,0,0,0,0,0,0,0,0,0,1,1,0,1,1,1,1,1,1,1,1,1,0,0,0,0,0,0,0,0,0,0,0,0,0,0,0,0,0,0,0,0,0,0,0,0,0,0,1,1,0,1,1,1,1,1,1,1,1,1,0,0,0,0,0,0,0,0,0,0,0,0,0,0,0,0,0,0,0,0,0,0,0,0,0,0,1,1,0,0,0,0,0,0,1,1,1,1,1,1,1,1,1,1,1,1,1,1,1,1,1,1,1,1,0,1,1,1,1,1,1,1,1,1,1,1,1,1,1,1,1,1,1,1,1],"width":38,"height":24,"x":0,"y":0,"opacity":1,"visible":true},{"id":6,"name":"spawn-points","type":"objectgroup","draworder":"topdown","objects":[{"id":1,"name":"desk-ceo","type":"","x":208,"y":240,"width":0,"height":0,"rotation":0,"visible":true,"point":true},{"id":2,"name":"pc-1","type":"","x":256,"y":240,"width":0,"height":0,"rotation":0,"visible":true,"point":true},{"id":3,"name":"pc-2","type":"","x":304,"y":240,"width":0,"height":0,"rotation":0,"visible":true,"point":true},{"id":4,"name":"pc-3","type":"","x":352,"y":240,"width":0,"height":0,"rotation":0,"visible":true,"point":true},{"id":5,"name":"pc-4","type":"","x":400,"y":240,"width":0,"height":0,"rotation":0,"visible":true,"point":true},{"id":6,"name":"pc-5","type":"","x":256,"y":304,"width":0,"height":0,"rotation":0,"visible":true,"point":true},{"id":7,"name":"pc-6","type":"","x":304,"y":304,"width":0,"height":0,"rotation":0,"visible":true,"point":true},{"id":8,"name":"pc-7","type":"","x":352,"y":304,"width":0,"height":0,"rotation":0,"visible":true,"point":true},{"id":9,"name":"pc-8","type":"","x":400,"y":304,"width":0,"height":0,"rotation":0,"visible":true,"point":true},{"id":10,"name":"cafe-seat-1","type":"","x":496,"y":256,"width":0,"height":0,"rotation":0,"visible":true,"point":true},{"id":11,"name":"cafe-seat-2","type":"","x":496,"y":288,"width":0,"height":0,"rotation":0,"visible":true,"point":true},{"id":12,"name":"cafe-seat-3","type":"","x":512,"y":256,"width":0,"height":0,"rotation":0,"visible":true,"point":true},{"id":13,"name":"cafe-seat-4","type":"","x":512,"y":288,"width":0,"height":0,"rotation":0,"visible":true,"point":true},{"id":14,"name":"cafe-stand-coffee","type":"","x":480,"y":352,"width":0,"height":0,"rotation":0,"visible":true,"point":true},{"id":15,"name":"cafe-stand-vending","type":"","x":528,"y":240,"width":0,"height":0,"rotation":0,"visible":true,"point":true},{"id":16,"name":"entrance","type":"","x":272,"y":352,"width":0,"height":0,"rotation":0,"visible":true,"point":true}],"opacity":1,"visible":true,"x":0,"y":0},{"id":7,"name":"zones","type":"objectgroup","draworder":"topdown","objects":[{"id":17,"name":"warroom","type":"","x":16,"y":48,"width":256,"height":112,"rotation":0,"visible":true},{"id":18,"name":"servercorner","type":"","x":304,"y":48,"width":288,"height":112,"rotation":0,"visible":true},{"id":19,"name":"lounge","type":"","x":16,"y":208,"width":224,"height":160,"rotation":0,"visible":true},{"id":20,"name":"kitchen","type":"","x":432,"y":208,"width":160,"height":160,"rotation":0,"visible":true}],"opacity":1,"visible":true,"x":0,"y":0}]}